ncols         50
nrows         50
xllcorner     40.0
yllcorner     60.0
cellsize      2.0
NODATA_value  -9999
37.684 37.684 37.684 37.684 37.684 37.684 37.684 37.684 37.684 37.684 37.684 37.684 37.684 37.684 37.684 37.684 37.684 37.684 37.684 37.684 37.684 37.684 37.684 37.684 37.684 37.684 37.684 37.684 37.684 37.684 37.684 37.684 37.684 37.684 37.684 37.684 37.684 37.684 37.684 37.684 37.684 37.684 37.684 37.684 37.684 37.684 37.684 37.684 37.684 37.684 
36.529 36.529 36.529 36.529 36.529 36.529 36.529 36.529 36.529 36.529 36.529 36.529 36.529 36.529 36.529 36.529 36.529 36.529 36.529 36.529 36.529 36.529 36.529 36.529 36.529 36.529 36.529 36.529 36.529 36.529 36.529 36.529 36.529 36.529 36.529 36.529 36.529 36.529 36.529 36.529 36.529 36.529 36.529 36.529 36.529 36.529 36.529 36.529 36.529 36.529 
35.374 35.374 35.374 35.374 35.374 35.374 35.374 35.374 35.374 35.374 35.374 35.374 35.374 35.374 35.374 35.374 35.374 35.374 35.374 35.374 35.374 35.374 35.374 35.374 35.374 35.374 35.374 35.374 35.374 35.374 35.374 35.374 35.374 35.374 35.374 35.374 35.374 35.374 35.374 35.374 35.374 35.374 35.374 35.374 35.374 35.374 35.374 35.374 35.374 35.374 
34.220 34.220 34.220 34.220 34.220 34.220 34.220 34.220 34.220 34.220 34.220 34.220 34.220 34.220 34.220 34.220 34.220 34.220 34.220 34.220 34.220 34.220 34.220 34.220 34.220 34.220 34.220 34.220 34.220 34.220 34.220 34.220 34.220 34.220 34.220 34.220 34.220 34.220 34.220 34.220 34.220 34.220 34.220 34.220 34.220 34.220 34.220 34.220 34.220 34.220 
33.065 33.065 33.065 33.065 33.065 33.065 33.065 33.065 33.065 33.065 33.065 33.065 33.065 33.065 33.065 33.065 33.065 33.065 33.065 33.065 33.065 33.065 33.065 33.065 33.065 33.065 33.065 33.065 33.065 33.065 33.065 33.065 33.065 33.065 33.065 33.065 33.065 33.065 33.065 33.065 33.065 33.065 33.065 33.065 33.065 33.065 33.065 33.065 33.065 33.065 
31.910 31.910 31.910 31.910 31.910 31.910 31.910 31.910 31.910 31.910 31.910 31.910 31.910 31.910 31.910 31.910 31.910 31.910 31.910 31.910 31.910 31.910 31.910 31.910 31.910 31.910 31.910 31.910 31.910 31.910 31.910 31.910 31.910 31.910 31.910 31.910 31.910 31.910 31.910 31.910 31.910 31.910 31.910 31.910 31.910 31.910 31.910 31.910 31.910 31.910 
30.756 30.756 30.756 30.756 30.756 30.756 30.756 30.756 30.756 30.756 30.756 30.756 30.756 30.756 30.756 30.756 30.756 30.756 30.756 30.756 30.756 30.756 30.756 30.756 30.756 30.756 30.756 30.756 30.756 30.756 30.756 30.756 30.756 30.756 30.756 30.756 30.756 30.756 30.756 30.756 30.756 30.756 30.756 30.756 30.756 30.756 30.756 30.756 30.756 30.756 
29.601 29.601 29.601 29.601 29.601 29.601 29.601 29.601 29.601 29.601 29.601 29.601 29.601 29.601 29.601 29.601 29.601 29.601 29.601 29.601 29.601 29.601 29.601 29.601 29.601 29.601 29.601 29.601 29.601 29.601 29.601 29.601 29.601 29.601 29.601 29.601 29.601 29.601 29.601 29.601 29.601 29.601 29.601 29.601 29.601 29.601 29.601 29.601 29.601 29.601 
28.446 28.446 28.446 28.446 28.446 28.446 28.446 28.446 28.446 28.446 28.446 28.446 28.446 28.446 28.446 28.446 28.446 28.446 28.446 28.446 28.446 28.446 28.446 28.446 28.446 28.446 28.446 28.446 28.446 28.446 28.446 28.446 28.446 28.446 28.446 28.446 28.446 28.446 28.446 28.446 28.446 28.446 28.446 28.446 28.446 28.446 28.446 28.446 28.446 28.446 
27.292 27.292 27.292 27.292 27.292 27.292 27.292 27.292 27.292 27.292 27.292 27.292 27.292 27.292 27.292 27.292 27.292 27.292 27.292 27.292 27.292 27.292 27.292 27.292 27.292 27.292 27.292 27.292 27.292 27.292 27.292 27.292 27.292 27.292 27.292 27.292 27.292 27.292 27.292 27.292 27.292 27.292 27.292 27.292 27.292 27.292 27.292 27.292 27.292 27.292 
26.137 26.137 26.137 26.137 26.137 26.137 26.137 26.137 26.137 26.137 26.137 26.137 26.137 26.137 26.137 26.137 26.137 26.137 26.137 26.137 26.137 26.137 26.137 26.137 26.137 26.137 26.137 26.137 26.137 26.137 26.137 26.137 26.137 26.137 26.137 26.137 26.137 26.137 26.137 26.137 26.137 26.137 26.137 26.137 26.137 26.137 26.137 26.137 26.137 26.137 
24.982 24.982 24.982 24.982 24.982 24.982 24.982 24.982 24.982 24.982 24.982 24.982 24.982 24.982 24.982 24.982 24.982 24.982 24.982 24.982 24.982 24.982 24.982 24.982 24.982 24.982 24.982 24.982 24.982 24.982 24.982 24.982 24.982 24.982 24.982 24.982 24.982 24.982 24.982 24.982 24.982 24.982 24.982 24.982 24.982 24.982 24.982 24.982 24.982 24.982 
23.827 23.827 23.827 23.827 23.827 23.827 23.827 23.827 23.827 23.827 23.827 23.827 23.827 23.827 23.827 23.827 23.827 23.827 23.827 23.827 23.827 23.827 23.827 23.827 23.827 23.827 23.827 23.827 23.827 23.827 23.827 23.827 23.827 23.827 23.827 23.827 23.827 23.827 23.827 23.827 23.827 23.827 23.827 23.827 23.827 23.827 23.827 23.827 23.827 23.827 
22.673 22.673 22.673 22.673 22.673 22.673 22.673 22.673 22.673 22.673 22.673 22.673 22.673 22.673 22.673 22.673 22.673 22.673 22.673 22.673 22.673 22.673 22.673 22.673 22.673 22.673 22.673 22.673 22.673 22.673 22.673 22.673 22.673 22.673 22.673 22.673 22.673 22.673 22.673 22.673 22.673 22.673 22.673 22.673 22.673 22.673 22.673 22.673 22.673 22.673 
21.518 21.518 21.518 21.518 21.518 21.518 21.518 21.518 21.518 21.518 21.518 21.518 21.518 21.518 21.518 21.518 21.518 21.518 21.518 21.518 21.518 21.518 21.518 21.518 21.518 21.518 21.518 21.518 21.518 21.518 21.518 21.518 21.518 21.518 21.518 21.518 21.518 21.518 21.518 21.518 21.518 21.518 21.518 21.518 21.518 21.518 21.518 21.518 21.518 21.518 
20.363 20.363 20.363 20.363 20.363 20.363 20.363 20.363 20.363 20.363 20.363 20.363 20.363 20.363 20.363 20.363 20.363 20.363 20.363 20.363 20.363 20.363 20.363 20.363 20.363 20.363 20.363 20.363 20.363 20.363 20.363 20.363 20.363 20.363 20.363 20.363 20.363 20.363 20.363 20.363 20.363 20.363 20.363 20.363 20.363 20.363 20.363 20.363 20.363 20.363 
19.209 19.209 19.209 19.209 19.209 19.209 19.209 19.209 19.209 19.209 19.209 19.209 19.209 19.209 19.209 19.209 19.209 19.209 19.209 19.209 19.209 19.209 19.209 19.209 19.209 19.209 19.209 19.209 19.209 19.209 19.209 19.209 19.209 19.209 19.209 19.209 19.209 19.209 19.209 19.209 19.209 19.209 19.209 19.209 19.209 19.209 19.209 19.209 19.209 19.209 
18.054 18.054 18.054 18.054 18.054 18.054 18.054 18.054 18.054 18.054 18.054 18.054 18.054 18.054 18.054 18.054 18.054 18.054 18.054 18.054 18.054 18.054 18.054 18.054 18.054 18.054 18.054 18.054 18.054 18.054 18.054 18.054 18.054 18.054 18.054 18.054 18.054 18.054 18.054 18.054 18.054 18.054 18.054 18.054 18.054 18.054 18.054 18.054 18.054 18.054 
16.899 16.899 16.899 16.899 16.899 16.899 16.899 16.899 16.899 16.899 16.899 16.899 16.899 16.899 16.899 16.899 16.899 16.899 16.899 16.899 16.899 16.899 16.899 16.899 16.899 16.899 16.899 16.899 16.899 16.899 16.899 16.899 16.899 16.899 16.899 16.899 16.899 16.899 16.899 16.899 16.899 16.899 16.899 16.899 16.899 16.899 16.899 16.899 16.899 16.899 
15.745 15.745 15.745 15.745 15.745 15.745 15.745 15.745 15.745 15.745 15.745 15.745 15.745 15.745 15.745 15.745 15.745 15.745 15.745 15.745 15.745 15.745 15.745 15.745 15.745 15.745 15.745 15.745 15.745 15.745 15.745 15.745 15.745 15.745 15.745 15.745 15.745 15.745 15.745 15.745 15.745 15.745 15.745 15.745 15.745 15.745 15.745 15.745 15.745 15.745 
14.590 14.590 14.590 14.590 14.590 14.590 14.590 14.590 14.590 14.590 14.590 14.590 14.590 14.590 14.590 14.590 14.590 14.590 14.590 14.590 14.590 14.590 14.590 14.590 14.590 14.590 14.590 14.590 14.590 14.590 14.590 14.590 14.590 14.590 14.590 14.590 14.590 14.590 14.590 14.590 14.590 14.590 14.590 14.590 14.590 14.590 14.590 14.590 14.590 14.590 
13.435 13.435 13.435 13.435 13.435 13.435 13.435 13.435 13.435 13.435 13.435 13.435 13.435 13.435 13.435 13.435 13.435 13.435 13.435 13.435 13.435 13.435 13.435 13.435 13.435 13.435 13.435 13.435 13.435 13.435 13.435 13.435 13.435 13.435 13.435 13.435 13.435 13.435 13.435 13.435 13.435 13.435 13.435 13.435 13.435 13.435 13.435 13.435 13.435 13.435 
12.280 12.280 12.280 12.280 12.280 12.280 12.280 12.280 12.280 12.280 12.280 12.280 12.280 12.280 12.280 12.280 12.280 12.280 12.280 12.280 12.280 12.280 12.280 12.280 12.280 12.280 12.280 12.280 12.280 12.280 12.280 12.280 12.280 12.280 12.280 12.280 12.280 12.280 12.280 12.280 12.280 12.280 12.280 12.280 12.280 12.280 12.280 12.280 12.280 12.280 
11.126 11.126 11.126 11.126 11.126 11.126 11.126 11.126 11.126 11.126 11.126 11.126 11.126 11.126 11.126 11.126 11.126 11.126 11.126 11.126 11.126 11.126 11.126 11.126 11.126 11.126 11.126 11.126 11.126 11.126 11.126 11.126 11.126 11.126 11.126 11.126 11.126 11.126 11.126 11.126 11.126 11.126 11.126 11.126 11.126 11.126 11.126 11.126 11.126 11.126 
9.971 9.971 9.971 9.971 9.971 9.971 9.971 9.971 9.971 9.971 9.971 9.971 9.971 9.971 9.971 9.971 9.971 9.971 9.971 9.971 9.971 9.971 9.971 9.971 9.971 9.971 9.971 9.971 9.971 9.971 9.971 9.971 9.971 9.971 9.971 9.971 9.971 9.971 9.971 9.971 9.971 9.971 9.971 9.971 9.971 9.971 9.971 9.971 9.971 9.971 
8.816 8.816 8.816 8.816 8.816 8.816 8.816 8.816 8.816 8.816 8.816 8.816 8.816 8.816 8.816 8.816 8.816 8.816 8.816 8.816 8.816 8.816 8.816 8.816 8.816 8.816 8.816 8.816 8.816 8.816 8.816 8.816 8.816 8.816 8.816 8.816 8.816 8.816 8.816 8.816 8.816 8.816 8.816 8.816 8.816 8.816 8.816 8.816 8.816 8.816 
8.464 8.464 8.464 8.464 8.464 8.464 8.464 8.464 8.464 8.464 8.464 8.464 8.464 8.464 8.464 8.464 8.464 8.464 8.464 8.464 8.464 8.464 8.464 8.464 8.464 8.464 8.464 8.464 8.464 8.464 8.464 8.464 8.464 8.464 8.464 8.464 8.464 8.464 8.464 8.464 8.464 8.464 8.464 8.464 8.464 8.464 8.464 8.464 8.464 8.464 
8.111 8.111 8.111 8.111 8.111 8.111 8.111 8.111 8.111 8.111 8.111 8.111 8.111 8.111 8.111 8.111 8.111 8.111 8.111 8.111 8.111 8.111 8.111 8.111 8.111 8.111 8.111 8.111 8.111 8.111 8.111 8.111 8.111 8.111 8.111 8.111 8.111 8.111 8.111 8.111 8.111 8.111 8.111 8.111 8.111 8.111 8.111 8.111 8.111 8.111 
7.758 7.758 7.758 7.758 7.758 7.758 7.758 7.758 7.758 7.758 7.758 7.758 7.758 7.758 7.758 7.758 7.758 7.758 7.758 7.758 7.758 7.758 7.758 7.758 7.758 7.758 7.758 7.758 7.758 7.758 7.758 7.758 7.758 7.758 7.758 7.758 7.758 7.758 7.758 7.758 7.758 7.758 7.758 7.758 7.758 7.758 7.758 7.758 7.758 7.758 
7.406 7.406 7.406 7.406 7.406 7.406 7.406 7.406 7.406 7.406 7.406 7.406 7.406 7.406 7.406 7.406 7.406 7.406 7.406 7.406 7.406 7.406 7.406 7.406 7.406 7.406 7.406 7.406 7.406 7.406 7.406 7.406 7.406 7.406 7.406 7.406 7.406 7.406 7.406 7.406 7.406 7.406 7.406 7.406 7.406 7.406 7.406 7.406 7.406 7.406 
7.053 7.053 7.053 7.053 7.053 7.053 7.053 7.053 7.053 7.053 7.053 7.053 7.053 7.053 7.053 7.053 7.053 7.053 7.053 7.053 7.053 7.053 7.053 7.053 7.053 7.053 7.053 7.053 7.053 7.053 7.053 7.053 7.053 7.053 7.053 7.053 7.053 7.053 7.053 7.053 7.053 7.053 7.053 7.053 7.053 7.053 7.053 7.053 7.053 7.053 
6.700 6.700 6.700 6.700 6.700 6.700 6.700 6.700 6.700 6.700 6.700 6.700 6.700 6.700 6.700 6.700 6.700 6.700 6.700 6.700 6.700 6.700 6.700 6.700 6.700 6.700 6.700 6.700 6.700 6.700 6.700 6.700 6.700 6.700 6.700 6.700 6.700 6.700 6.700 6.700 6.700 6.700 6.700 6.700 6.700 6.700 6.700 6.700 6.700 6.700 
6.348 6.348 6.348 6.348 6.348 6.348 6.348 6.348 6.348 6.348 6.348 6.348 6.348 6.348 6.348 6.348 6.348 6.348 6.348 6.348 6.348 6.348 6.348 6.348 6.348 6.348 6.348 6.348 6.348 6.348 6.348 6.348 6.348 6.348 6.348 6.348 6.348 6.348 6.348 6.348 6.348 6.348 6.348 6.348 6.348 6.348 6.348 6.348 6.348 6.348 
5.995 5.995 5.995 5.995 5.995 5.995 5.995 5.995 5.995 5.995 5.995 5.995 5.995 5.995 5.995 5.995 5.995 5.995 5.995 5.995 5.995 5.995 5.995 5.995 5.995 5.995 5.995 5.995 5.995 5.995 5.995 5.995 5.995 5.995 5.995 5.995 5.995 5.995 5.995 5.995 5.995 5.995 5.995 5.995 5.995 5.995 5.995 5.995 5.995 5.995 
5.642 5.642 5.642 5.642 5.642 5.642 5.642 5.642 5.642 5.642 5.642 5.642 5.642 5.642 5.642 5.642 5.642 5.642 5.642 5.642 5.642 5.642 5.642 5.642 5.642 5.642 5.642 5.642 5.642 5.642 5.642 5.642 5.642 5.642 5.642 5.642 5.642 5.642 5.642 5.642 5.642 5.642 5.642 5.642 5.642 5.642 5.642 5.642 5.642 5.642 
5.290 5.290 5.290 5.290 5.290 5.290 5.290 5.290 5.290 5.290 5.290 5.290 5.290 5.290 5.290 5.290 5.290 5.290 5.290 5.290 5.290 5.290 5.290 5.290 5.290 5.290 5.290 5.290 5.290 5.290 5.290 5.290 5.290 5.290 5.290 5.290 5.290 5.290 5.290 5.290 5.290 5.290 5.290 5.290 5.290 5.290 5.290 5.290 5.290 5.290 
4.937 4.937 4.937 4.937 4.937 4.937 4.937 4.937 4.937 4.937 4.937 4.937 4.937 4.937 4.937 4.937 4.937 4.937 4.937 4.937 4.937 4.937 4.937 4.937 4.937 4.937 4.937 4.937 4.937 4.937 4.937 4.937 4.937 4.937 4.937 4.937 4.937 4.937 4.937 4.937 4.937 4.937 4.937 4.937 4.937 4.937 4.937 4.937 4.937 4.937 
4.585 4.585 4.585 4.585 4.585 4.585 4.585 4.585 4.585 4.585 4.585 4.585 4.585 4.585 4.585 4.585 4.585 4.585 4.585 4.585 4.585 4.585 4.585 4.585 4.585 4.585 4.585 4.585 4.585 4.585 4.585 4.585 4.585 4.585 4.585 4.585 4.585 4.585 4.585 4.585 4.585 4.585 4.585 4.585 4.585 4.585 4.585 4.585 4.585 4.585 
4.232 4.232 4.232 4.232 4.232 4.232 4.232 4.232 4.232 4.232 4.232 4.232 4.232 4.232 4.232 4.232 4.232 4.232 4.232 4.232 4.232 4.232 4.232 4.232 4.232 4.232 4.232 4.232 4.232 4.232 4.232 4.232 4.232 4.232 4.232 4.232 4.232 4.232 4.232 4.232 4.232 4.232 4.232 4.232 4.232 4.232 4.232 4.232 4.232 4.232 
3.879 3.879 3.879 3.879 3.879 3.879 3.879 3.879 3.879 3.879 3.879 3.879 3.879 3.879 3.879 3.879 3.879 3.879 3.879 3.879 3.879 3.879 3.879 3.879 3.879 3.879 3.879 3.879 3.879 3.879 3.879 3.879 3.879 3.879 3.879 3.879 3.879 3.879 3.879 3.879 3.879 3.879 3.879 3.879 3.879 3.879 3.879 3.879 3.879 3.879 
3.527 3.527 3.527 3.527 3.527 3.527 3.527 3.527 3.527 3.527 3.527 3.527 3.527 3.527 3.527 3.527 3.527 3.527 3.527 3.527 3.527 3.527 3.527 3.527 3.527 3.527 3.527 3.527 3.527 3.527 3.527 3.527 3.527 3.527 3.527 3.527 3.527 3.527 3.527 3.527 3.527 3.527 3.527 3.527 3.527 3.527 3.527 3.527 3.527 3.527 
3.174 3.174 3.174 3.174 3.174 3.174 3.174 3.174 3.174 3.174 3.174 3.174 3.174 3.174 3.174 3.174 3.174 3.174 3.174 3.174 3.174 3.174 3.174 3.174 3.174 3.174 3.174 3.174 3.174 3.174 3.174 3.174 3.174 3.174 3.174 3.174 3.174 3.174 3.174 3.174 3.174 3.174 3.174 3.174 3.174 3.174 3.174 3.174 3.174 3.174 
2.821 2.821 2.821 2.821 2.821 2.821 2.821 2.821 2.821 2.821 2.821 2.821 2.821 2.821 2.821 2.821 2.821 2.821 2.821 2.821 2.821 2.821 2.821 2.821 2.821 2.821 2.821 2.821 2.821 2.821 2.821 2.821 2.821 2.821 2.821 2.821 2.821 2.821 2.821 2.821 2.821 2.821 2.821 2.821 2.821 2.821 2.821 2.821 2.821 2.821 
2.469 2.469 2.469 2.469 2.469 2.469 2.469 2.469 2.469 2.469 2.469 2.469 2.469 2.469 2.469 2.469 2.469 2.469 2.469 2.469 2.469 2.469 2.469 2.469 2.469 2.469 2.469 2.469 2.469 2.469 2.469 2.469 2.469 2.469 2.469 2.469 2.469 2.469 2.469 2.469 2.469 2.469 2.469 2.469 2.469 2.469 2.469 2.469 2.469 2.469 
2.116 2.116 2.116 2.116 2.116 2.116 2.116 2.116 2.116 2.116 2.116 2.116 2.116 2.116 2.116 2.116 2.116 2.116 2.116 2.116 2.116 2.116 2.116 2.116 2.116 2.116 2.116 2.116 2.116 2.116 2.116 2.116 2.116 2.116 2.116 2.116 2.116 2.116 2.116 2.116 2.116 2.116 2.116 2.116 2.116 2.116 2.116 2.116 2.116 2.116 
1.763 1.763 1.763 1.763 1.763 1.763 1.763 1.763 1.763 1.763 1.763 1.763 1.763 1.763 1.763 1.763 1.763 1.763 1.763 1.763 1.763 1.763 1.763 1.763 1.763 1.763 1.763 1.763 1.763 1.763 1.763 1.763 1.763 1.763 1.763 1.763 1.763 1.763 1.763 1.763 1.763 1.763 1.763 1.763 1.763 1.763 1.763 1.763 1.763 1.763 
1.411 1.411 1.411 1.411 1.411 1.411 1.411 1.411 1.411 1.411 1.411 1.411 1.411 1.411 1.411 1.411 1.411 1.411 1.411 1.411 1.411 1.411 1.411 1.411 1.411 1.411 1.411 1.411 1.411 1.411 1.411 1.411 1.411 1.411 1.411 1.411 1.411 1.411 1.411 1.411 1.411 1.411 1.411 1.411 1.411 1.411 1.411 1.411 1.411 1.411 
1.058 1.058 1.058 1.058 1.058 1.058 1.058 1.058 1.058 1.058 1.058 1.058 1.058 1.058 1.058 1.058 1.058 1.058 1.058 1.058 1.058 1.058 1.058 1.058 1.058 1.058 1.058 1.058 1.058 1.058 1.058 1.058 1.058 1.058 1.058 1.058 1.058 1.058 1.058 1.058 1.058 1.058 1.058 1.058 1.058 1.058 1.058 1.058 1.058 1.058 
0.705 0.705 0.705 0.705 0.705 0.705 0.705 0.705 0.705 0.705 0.705 0.705 0.705 0.705 0.705 0.705 0.705 0.705 0.705 0.705 0.705 0.705 0.705 0.705 0.705 0.705 0.705 0.705 0.705 0.705 0.705 0.705 0.705 0.705 0.705 0.705 0.705 0.705 0.705 0.705 0.705 0.705 0.705 0.705 0.705 0.705 0.705 0.705 0.705 0.705 
0.353 0.353 0.353 0.353 0.353 0.353 0.353 0.353 0.353 0.353 0.353 0.353 0.353 0.353 0.353 0.353 0.353 0.353 0.353 0.353 0.353 0.353 0.353 0.353 0.353 0.353 0.353 0.353 0.353 0.353 0.353 0.353 0.353 0.353 0.353 0.353 0.353 0.353 0.353 0.353 0.353 0.353 0.353 0.353 0.353 0.353 0.353 0.353 0.353 0.353 
