ncols        177
nrows        101
xllcorner    984717.500000000000
yllcorner    6698685.000000000000
cellsize     2.500000000000
NODATA_value -9999
-9999.0 -9999 -9999 -9999 -9999 -9999 -9999 -9999 -9999 -9999 -9999 -9999 -9999 -9999 -9999 -9999 -9999 -9999 -9999 -9999 -9999 -9999 -9999 -9999 -9999 -9999 -9999 -9999 -9999 -9999 -9999 -9999 -9999 -9999 -9999 -9999 -9999 -9999 -9999 -9999 -9999 -9999 -9999 -9999 -9999 -9999 -9999 -9999 -9999 -9999 -9999 -9999 -9999 -9999 -9999 -9999 -9999 -9999 -9999 -9999 -9999 -9999 -9999 -9999 -9999 -9999 -9999 -9999 -9999 -9999 -9999 -9999 -9999 -9999 -9999 -9999 -9999 -9999 -9999 -9999 -9999 -9999 -9999 -9999 -9999 -9999 -9999 -9999 -9999 -9999 -9999 -9999 -9999 -9999 -9999 -9999 -9999 521 521 521 521 522 522 522 523 524 525 525 525 525 525 525 -9999 -9999 -9999 -9999 -9999 -9999 -9999 -9999 -9999 -9999 -9999 -9999 -9999 -9999 -9999 -9999 -9999 -9999 -9999 -9999 -9999 -9999 -9999 -9999 -9999 -9999 -9999 -9999 -9999 -9999 -9999 -9999 -9999 -9999 -9999 -9999 -9999 -9999 -9999 -9999 -9999 -9999 -9999 -9999 -9999 -9999 -9999 -9999 -9999 -9999 -9999 -9999 -9999 -9999 -9999 -9999 -9999 -9999 -9999 -9999 -9999 -9999 -9999 -9999 -9999 
-9999 -9999 -9999 -9999 -9999 -9999 -9999 -9999 -9999 -9999 -9999 -9999 -9999 -9999 -9999 -9999 -9999 -9999 -9999 -9999 -9999 -9999 -9999 -9999 -9999 -9999 -9999 -9999 -9999 -9999 -9999 -9999 -9999 -9999 -9999 -9999 -9999 -9999 -9999 -9999 -9999 -9999 -9999 -9999 -9999 -9999 -9999 -9999 -9999 -9999 -9999 -9999 -9999 -9999 -9999 -9999 -9999 -9999 -9999 -9999 -9999 -9999 -9999 -9999 -9999 -9999 -9999 -9999 -9999 -9999 -9999 -9999 -9999 -9999 -9999 -9999 -9999 -9999 -9999 -9999 -9999 -9999 -9999 -9999 -9999 -9999 -9999 -9999 524 524 522 521 520 520 519 519 519 519 519 519 519 519 520 521 522 523 524 524 525 525 525 525 525 525 525 526 -9999 -9999 -9999 -9999 -9999 -9999 -9999 -9999 -9999 -9999 -9999 -9999 -9999 -9999 -9999 -9999 -9999 -9999 -9999 -9999 -9999 -9999 -9999 -9999 -9999 -9999 -9999 -9999 -9999 -9999 -9999 -9999 -9999 -9999 -9999 -9999 -9999 -9999 -9999 -9999 -9999 -9999 -9999 -9999 -9999 -9999 -9999 -9999 -9999 -9999 -9999 -9999 -9999 -9999 -9999 -9999 -9999 -9999 -9999 -9999 -9999 
-9999 -9999 -9999 -9999 -9999 -9999 -9999 -9999 -9999 -9999 -9999 -9999 -9999 -9999 -9999 -9999 -9999 -9999 -9999 -9999 -9999 -9999 -9999 -9999 -9999 -9999 -9999 -9999 -9999 -9999 -9999 -9999 -9999 -9999 -9999 -9999 -9999 -9999 -9999 -9999 -9999 -9999 -9999 -9999 -9999 -9999 -9999 -9999 -9999 -9999 -9999 -9999 -9999 -9999 -9999 -9999 -9999 -9999 -9999 -9999 -9999 -9999 -9999 -9999 -9999 -9999 -9999 -9999 -9999 -9999 -9999 -9999 -9999 -9999 -9999 -9999 -9999 -9999 -9999 529 528 528 527 526 526 525 524 523 523 522 521 520 519 519 518 517 516 516 517 516 517 518 519 520 521 522 523 523 524 524 524 524 524 524 524 524 524 524 524 523 -9999 -9999 -9999 -9999 -9999 -9999 -9999 -9999 -9999 -9999 -9999 -9999 -9999 -9999 -9999 -9999 -9999 -9999 -9999 -9999 -9999 -9999 -9999 -9999 -9999 -9999 -9999 -9999 -9999 -9999 -9999 -9999 -9999 -9999 -9999 -9999 -9999 -9999 -9999 -9999 -9999 -9999 -9999 -9999 -9999 -9999 -9999 -9999 -9999 -9999 -9999 -9999 -9999 -9999 -9999 -9999 -9999 
-9999 -9999 -9999 -9999 -9999 -9999 -9999 -9999 -9999 -9999 -9999 -9999 -9999 -9999 -9999 -9999 -9999 -9999 -9999 -9999 -9999 -9999 -9999 -9999 -9999 -9999 -9999 -9999 -9999 -9999 -9999 -9999 -9999 -9999 -9999 -9999 -9999 -9999 -9999 -9999 -9999 -9999 -9999 -9999 -9999 -9999 -9999 -9999 -9999 -9999 -9999 -9999 -9999 -9999 -9999 -9999 -9999 -9999 -9999 -9999 -9999 -9999 -9999 -9999 -9999 -9999 -9999 -9999 -9999 -9999 -9999 -9999 -9999 530 530 530 529 529 528 528 527 526 526 525 524 523 523 522 522 521 520 519 519 517 516 515 514 514 514 514 515 517 519 519 520 521 522 522 523 524 524 524 524 524 524 524 523 523 523 523 522 522 521 521 -9999 -9999 -9999 -9999 -9999 -9999 -9999 -9999 -9999 -9999 -9999 -9999 -9999 -9999 -9999 -9999 -9999 -9999 -9999 -9999 -9999 -9999 -9999 -9999 -9999 -9999 -9999 -9999 -9999 -9999 -9999 -9999 -9999 -9999 -9999 -9999 -9999 -9999 -9999 -9999 -9999 -9999 -9999 -9999 -9999 -9999 -9999 -9999 -9999 -9999 -9999 -9999 -9999 
-9999 -9999 -9999 -9999 -9999 -9999 -9999 -9999 -9999 -9999 -9999 -9999 -9999 -9999 -9999 -9999 -9999 -9999 -9999 -9999 -9999 -9999 -9999 -9999 -9999 -9999 -9999 -9999 -9999 -9999 -9999 -9999 -9999 -9999 -9999 -9999 -9999 -9999 -9999 -9999 -9999 -9999 -9999 -9999 -9999 -9999 -9999 -9999 -9999 -9999 -9999 -9999 -9999 -9999 -9999 -9999 -9999 -9999 -9999 -9999 -9999 -9999 -9999 -9999 -9999 -9999 -9999 -9999 530 530 530 530 530 530 529 529 529 528 527 527 526 525 525 524 523 523 522 521 521 520 519 518 517 516 515 513 512 511 511 512 514 517 518 519 519 520 521 522 522 522 523 523 523 523 523 523 523 522 522 522 521 521 520 520 519 519 518 518 -9999 -9999 -9999 -9999 -9999 -9999 -9999 -9999 -9999 -9999 -9999 -9999 -9999 -9999 -9999 -9999 -9999 -9999 -9999 -9999 -9999 -9999 -9999 -9999 -9999 -9999 -9999 -9999 -9999 -9999 -9999 -9999 -9999 -9999 -9999 -9999 -9999 -9999 -9999 -9999 -9999 -9999 -9999 -9999 -9999 -9999 -9999 -9999 -9999 
-9999 -9999 -9999 -9999 -9999 -9999 -9999 -9999 -9999 -9999 -9999 -9999 -9999 -9999 -9999 -9999 -9999 -9999 -9999 -9999 -9999 -9999 -9999 -9999 -9999 -9999 -9999 -9999 -9999 -9999 -9999 -9999 -9999 -9999 -9999 -9999 -9999 -9999 -9999 -9999 -9999 -9999 -9999 -9999 -9999 -9999 -9999 -9999 -9999 -9999 -9999 -9999 -9999 -9999 -9999 -9999 -9999 -9999 -9999 -9999 -9999 -9999 -9999 530 530 530 530 530 530 530 530 530 529 529 529 529 528 527 527 526 526 525 524 524 523 522 522 521 520 519 518 517 515 513 512 510 510 510 509 510 512 515 517 518 519 519 520 520 521 522 522 522 522 522 522 522 522 521 521 521 520 520 519 519 518 518 517 516 516 515 514 513 -9999 -9999 -9999 -9999 -9999 -9999 -9999 -9999 -9999 -9999 -9999 -9999 -9999 -9999 -9999 -9999 -9999 -9999 -9999 -9999 -9999 -9999 -9999 -9999 -9999 -9999 -9999 -9999 -9999 -9999 -9999 -9999 -9999 -9999 -9999 -9999 -9999 -9999 -9999 -9999 -9999 -9999 -9999 -9999 -9999 
-9999 -9999 -9999 -9999 -9999 -9999 -9999 -9999 -9999 -9999 -9999 -9999 -9999 -9999 -9999 -9999 -9999 -9999 -9999 -9999 -9999 -9999 -9999 -9999 -9999 -9999 -9999 -9999 -9999 -9999 -9999 -9999 -9999 -9999 -9999 -9999 -9999 -9999 -9999 -9999 -9999 -9999 -9999 -9999 -9999 -9999 -9999 -9999 -9999 -9999 -9999 -9999 -9999 -9999 -9999 -9999 -9999 -9999 -9999 529 529 529 529 530 530 530 530 530 530 529 529 529 529 529 528 528 528 527 526 526 525 524 524 523 523 522 521 520 519 518 517 515 513 510 508 508 508 508 508 508 510 514 516 517 518 519 519 520 520 520 521 521 521 521 521 521 521 520 520 520 520 519 519 518 518 517 516 516 515 514 513 512 511 510 507 -9999 -9999 -9999 -9999 -9999 -9999 -9999 -9999 -9999 -9999 -9999 -9999 -9999 -9999 -9999 -9999 -9999 -9999 -9999 -9999 -9999 -9999 -9999 -9999 -9999 -9999 -9999 -9999 -9999 -9999 -9999 -9999 -9999 -9999 -9999 -9999 -9999 -9999 -9999 -9999 -9999 -9999 
-9999 -9999 -9999 -9999 -9999 -9999 -9999 -9999 -9999 -9999 -9999 -9999 -9999 -9999 -9999 -9999 -9999 -9999 -9999 -9999 -9999 -9999 -9999 -9999 -9999 -9999 -9999 -9999 -9999 -9999 -9999 -9999 -9999 -9999 -9999 -9999 -9999 -9999 -9999 -9999 -9999 -9999 -9999 -9999 -9999 -9999 -9999 -9999 -9999 -9999 -9999 -9999 -9999 -9999 -9999 -9999 -9999 528 529 529 529 529 529 529 529 529 529 529 529 529 529 529 528 528 528 528 527 527 526 525 525 524 524 523 522 522 521 519 518 516 514 512 510 507 506 506 506 506 505 505 507 511 515 516 517 518 518 519 519 520 520 520 520 520 520 520 520 520 519 519 519 518 518 517 517 516 515 515 514 513 512 511 510 509 507 505 503 495 494 -9999 -9999 -9999 -9999 -9999 -9999 -9999 -9999 -9999 -9999 -9999 -9999 -9999 -9999 -9999 -9999 -9999 -9999 -9999 -9999 -9999 -9999 -9999 -9999 -9999 -9999 -9999 -9999 -9999 -9999 -9999 -9999 -9999 -9999 -9999 -9999 -9999 -9999 
-9999 -9999 -9999 -9999 -9999 -9999 -9999 -9999 -9999 -9999 -9999 -9999 -9999 -9999 -9999 -9999 -9999 -9999 -9999 -9999 -9999 -9999 -9999 -9999 -9999 -9999 -9999 -9999 -9999 -9999 -9999 -9999 -9999 -9999 -9999 -9999 -9999 -9999 -9999 -9999 -9999 -9999 -9999 -9999 -9999 -9999 -9999 -9999 -9999 -9999 -9999 -9999 -9999 -9999 -9999 528 528 528 528 529 529 529 529 529 529 529 529 529 529 529 528 528 528 528 527 527 527 526 526 525 525 524 523 523 522 521 520 518 516 514 511 509 506 505 505 504 504 503 503 504 504 508 513 515 516 517 518 518 519 519 519 519 519 519 519 519 519 519 519 518 518 518 517 516 515 515 514 514 513 512 511 510 509 508 506 504 502 495 493 491 490 488 483 -9999 -9999 -9999 -9999 -9999 -9999 -9999 -9999 -9999 -9999 -9999 -9999 -9999 -9999 -9999 -9999 -9999 -9999 -9999 -9999 -9999 -9999 -9999 -9999 -9999 -9999 -9999 -9999 -9999 -9999 -9999 -9999 -9999 -9999 
-9999 -9999 -9999 -9999 -9999 -9999 -9999 -9999 -9999 -9999 -9999 -9999 -9999 -9999 -9999 -9999 -9999 -9999 -9999 -9999 -9999 -9999 -9999 -9999 -9999 -9999 -9999 -9999 -9999 -9999 -9999 -9999 -9999 -9999 -9999 -9999 -9999 -9999 -9999 -9999 -9999 -9999 -9999 -9999 -9999 -9999 -9999 -9999 -9999 -9999 -9999 -9999 -9999 -9999 527 528 528 528 528 529 529 529 529 529 529 529 529 528 528 528 528 528 528 527 527 527 526 526 526 525 525 524 523 523 522 520 519 517 514 510 508 506 504 503 502 502 501 501 501 501 502 505 510 512 515 516 516 517 518 518 518 519 519 519 519 519 518 518 518 518 517 517 516 515 514 513 513 512 512 512 511 509 508 507 505 504 495 494 492 490 487 480 478 478 486 488 491 -9999 -9999 -9999 -9999 -9999 -9999 -9999 -9999 -9999 -9999 -9999 -9999 -9999 -9999 -9999 -9999 -9999 -9999 -9999 -9999 -9999 -9999 -9999 -9999 -9999 -9999 -9999 -9999 -9999 -9999 
-9999 -9999 -9999 -9999 -9999 -9999 -9999 -9999 -9999 -9999 -9999 -9999 -9999 -9999 -9999 -9999 -9999 -9999 -9999 -9999 -9999 -9999 -9999 -9999 -9999 -9999 -9999 -9999 -9999 -9999 -9999 -9999 -9999 -9999 -9999 -9999 -9999 -9999 -9999 -9999 -9999 -9999 -9999 -9999 -9999 -9999 -9999 -9999 -9999 -9999 -9999 -9999 -9999 526 527 527 528 528 528 528 528 529 529 529 528 528 528 528 528 528 528 528 527 527 527 526 526 526 525 525 524 524 523 522 521 520 518 515 511 508 506 504 502 501 500 499 498 498 499 499 501 502 504 505 509 513 515 516 517 517 518 518 518 518 518 518 518 517 517 517 516 516 515 514 513 512 511 511 510 510 510 508 506 504 502 500 495 493 491 487 480 478 476 476 478 480 490 491 493 494 495 -9999 -9999 -9999 -9999 -9999 -9999 -9999 -9999 -9999 -9999 -9999 -9999 -9999 -9999 -9999 -9999 -9999 -9999 -9999 -9999 -9999 -9999 -9999 -9999 -9999 -9999 
-9999 -9999 -9999 -9999 -9999 -9999 -9999 -9999 -9999 -9999 -9999 -9999 -9999 -9999 -9999 -9999 -9999 -9999 -9999 -9999 -9999 -9999 -9999 -9999 -9999 -9999 -9999 -9999 -9999 -9999 -9999 -9999 -9999 -9999 -9999 -9999 -9999 -9999 -9999 -9999 -9999 -9999 -9999 -9999 -9999 -9999 -9999 -9999 -9999 -9999 -9999 -9999 525 526 527 527 527 528 528 528 528 528 528 528 528 528 528 528 528 528 527 527 527 527 526 526 526 526 525 525 524 524 523 522 521 519 517 515 511 506 504 501 500 498 496 496 496 497 497 497 499 501 502 503 504 511 512 514 516 516 517 517 517 517 517 516 516 516 516 516 515 515 514 513 512 510 509 509 509 509 508 507 503 499 497 495 494 492 487 480 479 477 474 474 477 478 480 489 491 492 493 494 495 497 498 -9999 -9999 -9999 -9999 -9999 -9999 -9999 -9999 -9999 -9999 -9999 -9999 -9999 -9999 -9999 -9999 -9999 -9999 -9999 -9999 -9999 -9999 
-9999 -9999 -9999 -9999 -9999 -9999 -9999 -9999 -9999 -9999 -9999 -9999 -9999 -9999 -9999 -9999 -9999 -9999 -9999 -9999 -9999 -9999 -9999 -9999 -9999 -9999 -9999 -9999 -9999 -9999 -9999 -9999 -9999 -9999 -9999 -9999 -9999 -9999 -9999 -9999 -9999 -9999 -9999 -9999 -9999 -9999 -9999 -9999 -9999 -9999 -9999 524 525 526 526 527 527 527 528 528 528 528 528 528 528 528 528 528 527 527 527 527 527 526 526 526 526 525 525 525 524 524 523 521 520 517 515 512 505 504 502 498 494 494 494 494 495 495 495 494 499 500 500 501 502 504 505 511 513 514 516 516 516 516 516 515 515 515 515 515 514 514 513 512 510 509 507 507 507 507 505 504 499 498 496 495 492 490 479 478 476 475 473 473 475 477 478 480 481 490 491 493 494 495 497 498 498 500 -9999 -9999 -9999 -9999 -9999 -9999 -9999 -9999 -9999 -9999 -9999 -9999 -9999 -9999 -9999 -9999 -9999 -9999 -9999 
-9999 -9999 -9999 -9999 -9999 -9999 -9999 -9999 -9999 -9999 -9999 -9999 -9999 -9999 -9999 -9999 -9999 -9999 -9999 -9999 -9999 -9999 -9999 -9999 -9999 -9999 -9999 -9999 -9999 -9999 -9999 -9999 -9999 -9999 -9999 -9999 -9999 -9999 -9999 -9999 -9999 -9999 -9999 -9999 -9999 -9999 -9999 -9999 -9999 -9999 522 523 524 525 526 526 527 527 527 528 528 528 528 528 528 527 527 527 527 527 526 526 526 526 525 525 525 525 524 524 524 523 522 521 519 515 510 506 504 502 499 493 493 493 493 493 493 493 493 493 492 496 498 499 501 502 503 505 509 509 512 515 516 515 514 511 512 514 514 514 512 511 511 511 509 507 505 505 504 503 502 500 498 497 495 493 488 480 478 476 473 472 471 471 473 475 477 478 480 482 487 491 493 494 495 496 497 497 499 503 503 -9999 -9999 -9999 -9999 -9999 -9999 -9999 -9999 -9999 -9999 -9999 -9999 -9999 -9999 -9999 -9999 
-9999 -9999 -9999 -9999 -9999 -9999 -9999 -9999 -9999 -9999 -9999 -9999 -9999 -9999 -9999 -9999 -9999 -9999 -9999 -9999 -9999 -9999 -9999 -9999 -9999 -9999 -9999 -9999 -9999 -9999 -9999 -9999 -9999 -9999 -9999 -9999 -9999 -9999 -9999 -9999 -9999 -9999 -9999 -9999 -9999 -9999 -9999 -9999 -9999 519 521 522 523 525 526 526 527 527 527 527 527 527 527 527 527 527 527 526 526 526 525 525 525 525 524 524 524 524 523 523 523 523 522 521 519 513 507 505 503 500 493 492 492 491 491 491 491 491 491 491 491 490 491 497 499 501 502 503 504 505 506 510 511 512 509 508 506 510 512 512 509 509 509 509 508 504 504 503 502 502 501 499 498 496 494 490 481 478 476 473 472 470 469 469 472 474 476 478 479 481 482 489 491 493 494 494 495 496 496 497 499 -9999 -9999 -9999 -9999 -9999 -9999 -9999 -9999 -9999 -9999 -9999 -9999 -9999 -9999 -9999 -9999 
-9999 -9999 -9999 -9999 -9999 -9999 -9999 -9999 -9999 -9999 -9999 -9999 -9999 -9999 -9999 -9999 -9999 -9999 -9999 -9999 -9999 -9999 -9999 -9999 -9999 -9999 -9999 -9999 -9999 -9999 -9999 -9999 -9999 -9999 -9999 -9999 -9999 -9999 -9999 -9999 -9999 -9999 -9999 -9999 -9999 -9999 -9999 -9999 517 518 520 521 523 524 525 526 526 527 527 527 527 527 527 527 527 526 526 525 525 524 523 523 524 523 523 522 523 522 522 522 522 522 521 521 518 509 506 504 499 492 491 490 490 490 489 489 489 489 489 489 489 489 489 489 494 499 500 501 502 503 504 504 505 504 503 504 503 503 505 506 506 507 507 506 505 503 502 501 501 500 499 498 497 495 494 483 480 477 474 472 470 468 467 468 470 473 475 477 478 480 482 483 485 488 491 492 493 494 495 496 497 -9999 -9999 -9999 -9999 -9999 -9999 -9999 -9999 -9999 -9999 -9999 -9999 -9999 -9999 -9999 -9999 
-9999 -9999 -9999 -9999 -9999 -9999 -9999 -9999 -9999 -9999 -9999 -9999 -9999 -9999 -9999 -9999 -9999 -9999 -9999 -9999 -9999 -9999 -9999 -9999 -9999 -9999 -9999 -9999 -9999 -9999 -9999 -9999 -9999 -9999 -9999 -9999 -9999 -9999 -9999 -9999 -9999 -9999 -9999 -9999 -9999 -9999 -9999 515 516 517 519 520 521 523 524 525 526 526 527 527 527 527 526 526 526 525 524 523 515 512 518 513 514 514 516 516 515 515 515 516 518 517 515 515 510 507 505 503 494 491 490 489 489 488 488 488 487 487 487 487 487 487 487 488 488 489 499 498 500 501 501 501 501 501 501 501 501 501 501 503 504 505 505 505 503 501 500 500 499 499 498 497 496 494 484 482 479 476 473 470 468 466 465 467 468 472 474 476 478 479 480 481 482 481 482 484 491 492 493 494 495 -9999 -9999 -9999 -9999 -9999 -9999 -9999 -9999 -9999 -9999 -9999 -9999 -9999 -9999 -9999 -9999 
-9999 -9999 -9999 -9999 -9999 -9999 -9999 -9999 -9999 -9999 -9999 -9999 -9999 -9999 -9999 -9999 -9999 -9999 -9999 -9999 -9999 -9999 -9999 -9999 -9999 -9999 -9999 -9999 -9999 -9999 -9999 -9999 -9999 -9999 -9999 -9999 -9999 -9999 -9999 -9999 -9999 -9999 -9999 -9999 -9999 -9999 512 514 515 516 518 519 520 522 523 524 525 526 526 526 526 526 525 524 523 511 510 509 509 509 510 510 510 509 509 509 509 509 509 509 509 509 509 508 507 506 505 503 491 490 488 487 487 486 486 486 486 485 485 485 485 485 485 486 486 487 488 489 497 498 499 499 500 499 499 499 499 499 500 501 502 502 503 502 501 500 498 497 497 497 497 494 488 486 484 482 479 475 473 469 466 464 463 465 467 472 474 476 477 478 479 480 480 479 480 480 482 483 491 493 493 -9999 -9999 -9999 -9999 -9999 -9999 -9999 -9999 -9999 -9999 -9999 -9999 -9999 -9999 -9999 -9999 
-9999 -9999 -9999 -9999 -9999 -9999 -9999 -9999 -9999 -9999 -9999 -9999 -9999 -9999 -9999 -9999 -9999 -9999 -9999 -9999 -9999 -9999 -9999 -9999 -9999 -9999 -9999 -9999 -9999 -9999 -9999 -9999 -9999 -9999 -9999 -9999 -9999 -9999 -9999 -9999 -9999 -9999 -9999 -9999 500 509 512 513 514 515 516 517 518 519 522 523 523 523 524 526 521 516 515 511 510 510 509 507 507 507 508 508 508 508 507 507 507 507 507 506 504 504 505 506 506 504 503 493 490 488 487 486 486 485 484 484 484 484 483 483 483 483 484 484 484 485 486 487 490 490 489 488 488 488 487 487 488 488 498 499 500 500 501 501 500 498 497 493 487 487 489 486 486 485 484 481 478 475 472 469 464 463 462 463 465 471 473 475 476 477 477 478 478 477 478 479 480 482 483 483 486 491 -9999 -9999 -9999 -9999 -9999 -9999 -9999 -9999 -9999 -9999 -9999 -9999 -9999 -9999 -9999 
-9999 -9999 -9999 -9999 -9999 -9999 -9999 -9999 -9999 -9999 -9999 -9999 -9999 -9999 -9999 -9999 -9999 -9999 -9999 -9999 -9999 -9999 -9999 -9999 -9999 -9999 -9999 -9999 -9999 -9999 -9999 -9999 -9999 -9999 -9999 -9999 -9999 -9999 -9999 -9999 -9999 -9999 -9999 498 500 501 506 512 513 514 515 516 516 517 519 520 520 519 517 515 513 511 510 508 508 508 501 499 496 496 496 498 505 493 492 492 492 497 504 497 495 495 495 496 503 502 493 491 489 487 486 485 484 483 483 482 482 482 481 481 481 481 482 482 483 484 485 487 488 490 487 487 486 486 486 486 486 486 487 492 497 499 499 499 498 496 488 487 486 485 485 484 484 484 483 481 478 475 471 468 463 461 460 461 464 466 469 473 474 475 476 476 475 475 476 477 478 481 481 481 483 483 -9999 -9999 -9999 -9999 -9999 -9999 -9999 -9999 -9999 -9999 -9999 -9999 -9999 -9999 -9999 
-9999 -9999 -9999 -9999 -9999 -9999 -9999 -9999 -9999 -9999 -9999 -9999 -9999 -9999 -9999 -9999 -9999 -9999 -9999 -9999 -9999 -9999 -9999 -9999 -9999 -9999 -9999 -9999 -9999 -9999 -9999 -9999 -9999 -9999 -9999 -9999 -9999 -9999 -9999 -9999 -9999 -9999 497 498 499 500 501 502 509 513 513 513 515 515 515 515 515 515 515 512 511 504 498 497 497 496 495 494 494 493 494 494 493 491 490 490 490 491 492 493 493 493 493 494 495 495 493 491 489 486 484 483 482 482 481 480 480 480 479 479 479 479 480 480 481 482 483 487 488 487 486 485 484 484 484 484 484 485 486 486 488 492 497 498 493 489 486 485 484 484 483 482 482 482 482 481 477 475 470 468 461 459 458 460 462 465 467 468 469 473 474 473 473 473 474 476 478 479 479 479 480 482 -9999 -9999 -9999 -9999 -9999 -9999 -9999 -9999 -9999 -9999 -9999 -9999 -9999 -9999 -9999 
-9999 -9999 -9999 -9999 -9999 -9999 -9999 -9999 -9999 -9999 -9999 -9999 -9999 -9999 -9999 -9999 -9999 -9999 -9999 -9999 -9999 -9999 -9999 -9999 -9999 -9999 -9999 -9999 -9999 -9999 -9999 -9999 -9999 -9999 -9999 -9999 -9999 -9999 -9999 -9999 -9999 495 496 498 499 499 500 500 501 502 505 512 513 513 513 513 513 513 512 511 500 497 496 495 494 494 493 492 492 492 492 492 492 490 488 488 488 490 491 491 491 491 491 492 494 494 492 491 488 486 483 482 481 480 480 479 478 478 477 478 477 478 478 479 479 481 482 487 488 487 484 483 482 482 482 482 482 483 484 485 488 489 490 490 489 487 485 483 482 482 481 481 481 481 481 480 477 475 469 467 460 457 456 458 462 462 463 465 468 469 470 470 469 469 473 474 476 477 477 478 478 481 -9999 -9999 -9999 -9999 -9999 -9999 -9999 -9999 -9999 -9999 -9999 -9999 -9999 -9999 -9999 
-9999 -9999 -9999 -9999 -9999 -9999 -9999 -9999 -9999 -9999 -9999 -9999 -9999 -9999 -9999 -9999 -9999 -9999 -9999 -9999 -9999 -9999 -9999 -9999 -9999 -9999 -9999 -9999 -9999 -9999 -9999 -9999 -9999 -9999 -9999 -9999 -9999 -9999 -9999 -9999 492 494 496 497 497 498 498 499 499 501 501 502 508 511 511 511 511 511 509 500 498 496 494 492 492 492 491 490 489 489 490 490 491 487 486 485 486 488 490 489 488 489 489 492 493 493 492 490 488 485 482 480 479 478 478 477 477 476 476 476 476 476 476 477 478 479 481 486 487 487 482 481 481 480 480 480 480 481 482 484 486 488 489 488 488 486 485 481 480 480 479 479 479 479 480 479 476 474 468 465 458 456 454 453 453 454 453 459 466 467 467 467 466 465 469 473 475 475 475 475 476 480 480 -9999 -9999 -9999 -9999 -9999 -9999 -9999 -9999 -9999 -9999 -9999 -9999 -9999 -9999 
-9999 -9999 -9999 -9999 -9999 -9999 -9999 -9999 -9999 -9999 -9999 -9999 -9999 -9999 -9999 -9999 -9999 -9999 -9999 -9999 -9999 -9999 -9999 -9999 -9999 -9999 -9999 -9999 -9999 -9999 -9999 -9999 -9999 -9999 -9999 -9999 -9999 -9999 -9999 491 492 494 496 495 495 496 496 497 498 499 499 499 500 500 501 501 502 501 500 499 497 495 491 490 489 489 489 488 487 487 487 488 489 486 483 483 484 487 488 487 486 486 488 490 492 492 490 489 488 485 481 479 477 476 476 476 475 474 474 474 474 474 474 475 477 478 480 483 486 484 481 479 478 478 478 478 478 479 481 483 486 487 487 487 486 485 482 480 479 478 477 477 477 477 478 478 476 471 467 464 456 455 453 452 451 451 452 452 456 455 454 454 455 456 465 471 473 473 473 473 475 478 479 -9999 -9999 -9999 -9999 -9999 -9999 -9999 -9999 -9999 -9999 -9999 -9999 -9999 -9999 
-9999 -9999 -9999 -9999 -9999 -9999 -9999 -9999 -9999 -9999 -9999 -9999 -9999 -9999 -9999 -9999 -9999 -9999 -9999 -9999 -9999 -9999 -9999 -9999 -9999 -9999 -9999 -9999 -9999 -9999 -9999 -9999 -9999 -9999 -9999 -9999 -9999 -9999 488 490 492 495 495 492 492 493 494 495 496 497 498 498 498 498 499 499 500 499 498 498 496 493 488 488 487 487 487 486 485 485 485 487 489 486 481 481 482 484 485 483 482 483 487 489 491 490 489 487 486 484 481 479 476 474 474 474 473 472 472 472 472 472 473 474 476 477 479 482 484 483 479 477 476 476 476 476 477 478 479 482 485 486 486 485 485 483 481 478 477 476 475 475 475 476 477 477 475 471 466 463 456 455 453 451 449 449 449 450 451 451 452 452 453 454 460 466 470 471 470 472 474 476 477 -9999 -9999 -9999 -9999 -9999 -9999 -9999 -9999 -9999 -9999 -9999 -9999 -9999 -9999 
-9999 -9999 -9999 -9999 -9999 -9999 -9999 -9999 -9999 -9999 -9999 -9999 -9999 -9999 -9999 -9999 -9999 -9999 -9999 -9999 -9999 -9999 -9999 -9999 -9999 -9999 -9999 -9999 -9999 -9999 -9999 -9999 -9999 -9999 -9999 -9999 -9999 482 488 490 491 493 493 490 490 491 492 493 495 496 496 496 496 496 497 498 498 497 497 496 494 490 486 485 484 484 484 484 483 482 483 487 489 484 479 478 479 480 481 481 480 480 482 486 488 488 487 486 484 483 480 479 476 473 472 471 471 471 470 470 470 470 471 472 475 477 479 482 483 482 477 475 475 474 473 473 475 476 478 481 483 484 484 484 483 482 481 477 476 474 473 473 473 474 475 476 474 472 470 469 464 454 452 450 448 447 447 448 449 449 450 450 451 453 454 455 462 465 468 470 474 475 475 -9999 -9999 -9999 -9999 -9999 -9999 -9999 -9999 -9999 -9999 -9999 -9999 -9999 -9999 
-9999 -9999 -9999 -9999 -9999 -9999 -9999 -9999 -9999 -9999 -9999 -9999 -9999 -9999 -9999 -9999 -9999 -9999 -9999 -9999 -9999 -9999 -9999 -9999 -9999 -9999 -9999 -9999 -9999 -9999 -9999 -9999 -9999 -9999 -9999 -9999 477 479 485 489 490 491 490 488 488 489 490 491 492 495 494 493 493 494 495 497 497 496 493 492 491 486 484 482 481 481 481 481 480 480 482 487 487 479 477 476 475 474 476 472 473 472 475 479 482 487 486 484 482 481 480 478 475 471 470 470 469 469 468 468 468 468 469 473 476 478 479 481 482 480 477 474 472 472 471 472 473 475 477 479 482 483 483 482 482 481 480 476 474 473 472 471 472 473 473 474 474 472 471 470 459 453 451 449 447 445 445 446 447 447 448 448 451 451 453 454 455 455 455 467 473 474 473 -9999 -9999 -9999 -9999 -9999 -9999 -9999 -9999 -9999 -9999 -9999 -9999 -9999 -9999 
-9999 -9999 -9999 -9999 -9999 -9999 -9999 -9999 -9999 -9999 -9999 -9999 -9999 -9999 -9999 -9999 -9999 -9999 -9999 -9999 -9999 -9999 -9999 -9999 -9999 -9999 -9999 -9999 -9999 -9999 -9999 -9999 -9999 -9999 -9999 475 477 478 481 487 489 490 489 485 486 487 489 489 490 492 492 491 491 492 494 495 495 494 491 489 486 484 481 478 476 474 475 474 473 475 480 484 484 478 475 474 474 472 471 471 471 470 470 470 470 480 482 482 480 479 479 478 473 469 468 468 467 467 466 466 466 467 467 467 475 477 479 480 480 478 476 471 471 470 469 469 468 470 474 476 480 481 481 481 480 480 479 476 474 472 470 469 469 470 472 472 472 472 471 470 456 452 450 448 446 444 443 444 445 445 445 447 448 450 451 453 453 453 453 464 467 469 470 470 -9999 -9999 -9999 -9999 -9999 -9999 -9999 -9999 -9999 -9999 -9999 -9999 -9999 
-9999 -9999 -9999 -9999 -9999 -9999 -9999 -9999 -9999 -9999 -9999 -9999 -9999 -9999 -9999 -9999 -9999 -9999 -9999 -9999 -9999 -9999 -9999 -9999 -9999 -9999 -9999 -9999 -9999 -9999 -9999 -9999 -9999 -9999 473 474 477 478 480 482 487 488 487 483 483 485 487 487 487 489 490 488 488 489 490 492 492 491 489 488 485 482 475 472 472 471 470 469 469 471 473 480 483 477 473 472 472 471 470 469 469 469 468 468 468 475 477 477 477 475 476 477 471 467 467 466 465 465 464 464 464 465 465 466 466 476 478 479 479 477 476 469 469 468 467 467 467 466 466 474 477 479 479 479 478 478 477 475 474 471 468 467 466 465 464 464 464 466 469 461 454 451 449 447 445 443 441 441 442 443 444 445 447 449 450 451 451 450 451 451 452 456 466 466 -9999 -9999 -9999 -9999 -9999 -9999 -9999 -9999 -9999 -9999 -9999 -9999 -9999 
-9999 -9999 -9999 -9999 -9999 -9999 -9999 -9999 -9999 -9999 -9999 -9999 -9999 -9999 -9999 -9999 -9999 -9999 -9999 -9999 -9999 -9999 -9999 -9999 -9999 -9999 -9999 -9999 -9999 -9999 -9999 -9999 469 471 473 474 476 478 480 481 482 483 482 481 481 482 483 479 481 485 483 478 482 485 487 487 487 487 486 486 485 480 472 471 470 469 468 467 467 468 469 470 480 474 470 470 470 469 468 467 467 467 466 466 466 467 467 468 470 469 468 467 466 466 465 464 464 463 463 462 462 463 463 464 465 466 471 475 476 474 471 467 467 466 466 465 465 464 464 465 472 476 476 476 476 475 475 474 473 470 466 465 465 463 463 463 462 462 461 458 454 451 449 447 444 442 440 439 440 441 442 444 446 448 449 449 448 448 449 449 450 452 454 455 -9999 -9999 -9999 -9999 -9999 -9999 -9999 -9999 -9999 -9999 -9999 -9999 -9999 
-9999 -9999 -9999 -9999 -9999 -9999 -9999 -9999 -9999 -9999 -9999 -9999 -9999 -9999 -9999 -9999 -9999 -9999 -9999 -9999 -9999 -9999 -9999 -9999 -9999 -9999 -9999 -9999 -9999 -9999 -9999 466 468 470 472 474 476 477 479 480 480 480 480 479 478 478 476 476 470 470 470 469 469 470 470 472 479 482 479 484 484 480 470 469 468 467 466 465 466 466 467 468 468 468 468 468 468 467 466 465 465 465 464 465 465 465 465 466 467 467 467 466 465 464 463 462 462 461 461 460 460 461 461 462 463 465 466 468 469 469 467 466 465 464 463 463 462 462 462 463 463 464 470 470 468 467 466 466 467 466 465 463 462 462 461 460 460 460 460 456 454 450 448 446 444 441 439 437 437 438 440 443 445 447 448 446 446 446 447 448 449 451 452 453 -9999 -9999 -9999 -9999 -9999 -9999 -9999 -9999 -9999 -9999 -9999 -9999 -9999 
-9999 -9999 -9999 -9999 -9999 -9999 -9999 -9999 -9999 -9999 -9999 -9999 -9999 -9999 -9999 -9999 -9999 -9999 -9999 -9999 -9999 -9999 -9999 -9999 -9999 -9999 -9999 -9999 -9999 -9999 464 466 468 470 472 474 475 477 478 478 478 479 478 476 475 472 467 466 466 466 467 467 467 467 468 468 469 469 470 471 472 471 468 467 466 465 464 463 464 465 466 467 466 466 466 466 466 465 464 463 463 463 462 462 463 463 463 464 465 465 465 464 463 462 462 461 460 459 459 458 458 459 460 461 462 464 465 467 468 467 466 464 463 462 461 461 460 460 460 461 462 462 464 465 466 465 464 464 464 464 463 461 461 460 459 459 459 458 458 455 453 450 448 446 443 440 437 436 435 436 438 441 444 445 445 444 444 444 445 446 447 450 451 451 -9999 -9999 -9999 -9999 -9999 -9999 -9999 -9999 -9999 -9999 -9999 -9999 -9999 
-9999 -9999 -9999 -9999 -9999 -9999 -9999 -9999 -9999 -9999 -9999 -9999 -9999 -9999 -9999 -9999 -9999 -9999 -9999 -9999 -9999 -9999 -9999 -9999 -9999 -9999 -9999 -9999 -9999 455 464 466 468 470 472 474 475 476 477 477 477 477 476 473 469 463 463 462 463 463 464 465 465 464 465 467 467 467 467 468 468 468 467 465 464 463 462 461 461 464 465 464 463 462 463 464 464 463 462 462 461 460 460 460 461 461 461 462 463 463 463 462 462 461 460 459 458 457 457 456 456 457 458 459 461 462 464 465 466 466 464 463 461 460 460 459 458 458 458 459 460 461 462 463 464 463 463 462 462 462 461 460 459 458 457 457 457 457 457 455 453 448 446 444 439 436 435 434 434 434 435 438 441 444 444 442 442 442 443 444 445 447 448 449 449 -9999 -9999 -9999 -9999 -9999 -9999 -9999 -9999 -9999 -9999 -9999 -9999 
-9999 -9999 -9999 -9999 -9999 -9999 -9999 -9999 -9999 -9999 -9999 -9999 -9999 -9999 -9999 -9999 -9999 -9999 -9999 -9999 -9999 -9999 -9999 -9999 -9999 -9999 -9999 -9999 451 454 462 466 468 470 472 473 474 475 475 475 474 474 474 472 462 459 458 457 457 461 462 461 461 462 462 464 464 465 465 465 466 465 465 464 462 461 460 459 459 462 462 460 460 460 460 462 462 461 460 460 459 458 458 458 458 459 460 461 462 462 461 461 460 459 458 457 456 455 455 454 454 455 457 458 460 461 462 464 464 464 463 461 460 458 458 457 456 456 456 457 458 459 460 461 461 461 460 460 460 460 459 458 457 456 455 455 455 455 455 455 453 447 444 438 435 435 433 432 432 432 433 434 437 440 440 440 439 440 441 442 444 445 446 447 448 -9999 -9999 -9999 -9999 -9999 -9999 -9999 -9999 -9999 -9999 -9999 -9999 
-9999 -9999 -9999 -9999 -9999 -9999 -9999 -9999 -9999 -9999 -9999 -9999 -9999 -9999 -9999 -9999 -9999 -9999 -9999 -9999 -9999 -9999 -9999 -9999 -9999 -9999 -9999 446 449 452 457 465 468 469 471 472 473 474 474 473 472 471 470 466 457 455 454 454 455 456 458 459 459 460 460 460 460 462 462 463 463 462 462 461 460 459 458 456 457 458 458 458 458 458 458 459 459 459 458 458 457 456 456 456 456 457 457 459 461 460 459 458 458 457 456 455 454 454 453 452 452 454 455 457 458 459 460 461 461 461 462 460 458 457 456 455 454 454 454 455 456 458 458 459 459 459 458 458 458 459 459 457 455 454 453 453 452 453 454 455 452 447 438 436 434 433 432 430 429 430 432 433 434 435 435 436 437 438 439 440 442 444 444 444 445 -9999 -9999 -9999 -9999 -9999 -9999 -9999 -9999 -9999 -9999 -9999 -9999 
-9999 -9999 -9999 -9999 -9999 -9999 -9999 -9999 -9999 -9999 -9999 -9999 -9999 -9999 -9999 -9999 -9999 -9999 -9999 -9999 -9999 -9999 -9999 -9999 -9999 -9999 439 440 443 452 456 463 467 469 470 471 472 472 472 471 470 466 465 463 454 453 452 452 452 453 454 455 455 456 457 456 458 459 460 460 460 459 458 457 456 455 454 453 454 455 455 456 455 455 456 456 457 457 456 456 455 454 454 454 454 454 455 457 460 458 457 456 455 454 454 454 453 452 451 450 450 453 454 456 457 457 458 459 459 459 460 459 457 455 454 453 452 452 452 453 453 455 456 457 457 457 456 456 456 457 457 456 453 452 451 450 451 451 452 454 449 443 435 434 432 431 430 427 427 428 429 430 432 433 434 434 435 436 437 438 439 441 442 442 444 -9999 -9999 -9999 -9999 -9999 -9999 -9999 -9999 -9999 -9999 -9999 -9999 
-9999 -9999 -9999 -9999 -9999 -9999 -9999 -9999 -9999 -9999 -9999 -9999 -9999 -9999 -9999 -9999 -9999 -9999 -9999 -9999 -9999 -9999 -9999 -9999 -9999 -9999 434 438 441 444 454 456 459 468 469 469 470 470 470 470 461 460 461 454 452 451 450 449 450 451 452 453 452 452 452 452 452 452 454 457 457 457 453 452 451 451 451 450 450 451 452 452 454 453 453 454 454 454 454 453 453 452 452 452 452 452 452 454 456 456 455 453 453 453 452 452 451 450 449 448 448 449 453 454 455 455 456 456 457 457 458 457 455 453 452 451 449 449 449 451 451 451 453 454 455 455 454 454 454 454 455 455 452 450 449 448 449 450 451 451 448 435 434 432 430 429 428 424 424 424 425 428 428 430 431 432 433 434 435 436 438 439 440 441 441 445 -9999 -9999 -9999 -9999 -9999 -9999 -9999 -9999 -9999 -9999 -9999 
-9999 -9999 -9999 -9999 -9999 -9999 -9999 -9999 -9999 -9999 -9999 -9999 -9999 -9999 -9999 -9999 -9999 -9999 -9999 -9999 -9999 -9999 -9999 -9999 -9999 432 432 432 437 441 452 455 456 456 457 467 466 469 466 459 457 455 454 452 449 448 447 447 447 449 449 450 449 449 450 450 450 450 450 450 450 450 450 449 450 449 448 448 448 447 447 448 448 449 449 450 452 452 451 451 451 450 450 450 450 450 450 451 452 451 451 451 451 451 450 450 449 448 447 446 445 446 445 448 451 452 454 454 455 455 455 455 454 452 449 448 447 446 447 447 448 448 449 451 453 453 452 452 452 452 452 452 451 449 444 441 442 448 449 449 436 434 432 430 428 427 426 423 422 422 423 425 426 427 429 430 431 432 434 435 436 437 438 439 439 443 -9999 -9999 -9999 -9999 -9999 -9999 -9999 -9999 -9999 -9999 -9999 
-9999 -9999 -9999 -9999 -9999 -9999 -9999 -9999 -9999 -9999 -9999 -9999 -9999 -9999 -9999 -9999 -9999 -9999 -9999 -9999 -9999 -9999 -9999 -9999 429 430 430 431 431 434 442 451 450 448 449 449 455 456 456 456 455 453 452 450 446 443 442 442 445 446 447 447 447 447 446 447 448 448 448 447 448 448 447 447 447 447 446 446 445 445 445 445 446 446 447 447 448 449 449 449 449 448 448 448 448 448 448 448 449 449 449 449 449 449 449 448 447 447 445 444 443 444 444 444 444 445 446 449 450 452 453 454 453 451 447 446 445 444 445 445 446 446 445 448 451 450 444 443 444 446 451 451 450 442 440 439 438 438 437 436 434 433 430 426 426 426 425 423 421 423 422 423 424 426 426 427 428 431 432 433 434 435 436 437 437 438 -9999 -9999 -9999 -9999 -9999 -9999 -9999 -9999 -9999 -9999 -9999 
-9999 -9999 -9999 -9999 -9999 -9999 -9999 -9999 -9999 -9999 -9999 -9999 -9999 -9999 -9999 -9999 -9999 -9999 -9999 -9999 -9999 -9999 -9999 427 427 428 428 429 429 430 430 431 432 434 434 438 439 440 440 446 449 449 444 442 441 440 440 440 440 439 439 442 444 445 441 442 443 443 443 443 443 444 444 442 442 443 444 443 443 442 442 442 443 444 444 445 446 447 447 447 447 446 446 446 446 446 446 446 447 447 447 447 447 447 446 446 446 445 444 443 441 442 442 442 443 443 444 444 444 444 445 447 448 448 444 444 443 442 443 443 443 443 443 442 442 442 441 441 441 441 441 441 440 439 438 437 435 435 434 431 430 427 425 425 424 424 423 421 421 421 420 421 422 424 425 425 424 428 430 431 432 433 434 435 435 435 -9999 -9999 -9999 -9999 -9999 -9999 -9999 -9999 -9999 -9999 -9999 
-9999 -9999 -9999 -9999 -9999 -9999 -9999 -9999 -9999 -9999 -9999 -9999 -9999 -9999 -9999 -9999 -9999 -9999 -9999 -9999 -9999 -9999 424 425 425 426 427 427 427 428 429 429 430 430 431 432 434 436 437 438 439 440 439 438 438 438 438 438 438 438 437 438 438 438 438 438 438 439 439 437 437 437 437 438 438 439 440 440 440 440 440 440 440 440 441 443 444 445 445 445 445 444 444 444 444 444 444 445 445 445 445 445 445 445 445 444 444 443 442 441 439 439 440 440 440 441 441 442 442 442 443 443 443 443 442 442 441 440 441 441 441 440 440 440 440 439 439 438 439 439 439 439 438 437 436 433 432 428 427 426 426 424 423 423 423 422 421 420 418 417 418 419 421 422 422 423 422 422 421 428 429 430 431 432 433 433 -9999 -9999 -9999 -9999 -9999 -9999 -9999 -9999 -9999 -9999 -9999 
-9999 -9999 -9999 -9999 -9999 -9999 -9999 -9999 -9999 -9999 -9999 -9999 -9999 -9999 -9999 -9999 -9999 -9999 -9999 -9999 -9999 422 423 423 424 424 425 425 426 426 427 428 428 429 429 430 431 431 431 432 432 432 433 434 434 436 436 436 436 436 436 435 436 436 436 436 437 436 436 435 435 435 435 436 436 437 438 438 438 438 438 438 438 438 438 438 440 442 442 443 443 442 442 441 441 441 442 443 443 443 443 442 442 442 443 443 443 442 441 439 437 437 437 437 437 438 438 439 439 439 440 440 441 441 441 440 439 437 438 438 438 436 436 436 435 436 436 435 436 436 436 436 436 434 432 428 428 427 426 425 424 423 422 421 420 420 419 417 415 415 416 418 419 420 420 421 420 420 420 420 419 423 421 428 427 427 427 -9999 -9999 -9999 -9999 -9999 -9999 -9999 -9999 -9999 -9999 
-9999 -9999 -9999 -9999 -9999 -9999 -9999 -9999 -9999 -9999 -9999 -9999 -9999 -9999 -9999 -9999 -9999 -9999 -9999 -9999 420 420 421 421 422 422 423 424 424 425 425 426 427 427 428 428 429 429 429 430 430 431 431 432 433 434 434 434 434 434 434 433 433 433 433 433 435 434 433 432 433 433 434 434 434 435 436 436 436 436 436 436 436 436 436 436 436 435 434 434 434 434 434 434 434 434 433 439 441 436 440 439 440 440 440 441 441 440 435 432 430 430 429 429 429 430 431 432 434 436 436 437 438 438 438 437 435 432 434 431 430 429 429 430 428 428 431 431 433 432 433 429 427 426 425 426 426 426 425 423 422 421 421 420 419 418 417 415 414 413 415 417 418 418 419 419 418 418 418 418 418 418 418 418 418 419 419 -9999 -9999 -9999 -9999 -9999 -9999 -9999 -9999 -9999 -9999 
-9999 -9999 -9999 -9999 -9999 -9999 -9999 -9999 -9999 -9999 -9999 -9999 -9999 -9999 -9999 -9999 -9999 -9999 -9999 -9999 418 418 419 420 420 421 421 421 422 423 423 424 425 425 426 426 427 427 428 428 428 429 429 430 431 432 432 432 432 432 431 431 431 431 431 431 431 431 431 431 431 431 432 432 432 433 434 434 434 434 434 434 434 434 434 434 434 433 432 432 432 432 433 433 432 432 432 431 431 431 432 433 434 434 435 435 434 432 428 427 428 428 428 427 427 427 427 428 428 429 430 429 429 427 427 427 428 429 429 428 428 427 427 426 426 426 426 426 425 425 424 424 423 423 424 424 424 424 423 422 421 420 419 418 417 417 415 414 412 412 413 415 416 416 417 417 416 416 416 416 416 416 416 416 417 417 418 -9999 -9999 -9999 -9999 -9999 -9999 -9999 -9999 -9999 -9999 
-9999 -9999 -9999 -9999 -9999 -9999 -9999 -9999 -9999 -9999 -9999 -9999 -9999 -9999 -9999 -9999 -9999 -9999 -9999 416 416 417 417 418 418 419 419 420 421 421 422 422 423 423 424 425 425 426 426 426 427 427 428 428 429 430 430 430 430 430 430 429 429 429 429 429 429 429 429 429 429 429 430 430 431 432 433 432 432 432 432 432 432 432 432 431 431 430 430 430 430 431 431 431 430 430 430 429 429 429 429 431 431 431 432 432 431 426 425 426 426 426 426 426 425 425 425 425 425 425 424 424 425 425 425 426 426 427 427 426 425 425 425 424 424 424 424 424 423 423 422 422 422 422 422 422 422 421 421 420 419 418 417 416 416 415 414 412 411 410 412 414 414 414 415 415 415 414 414 414 414 414 414 415 415 415 416 -9999 -9999 -9999 -9999 -9999 -9999 -9999 -9999 -9999 -9999 
-9999 -9999 -9999 -9999 -9999 -9999 -9999 -9999 -9999 -9999 -9999 -9999 -9999 -9999 -9999 -9999 -9999 -9999 413 414 415 415 415 416 417 417 417 418 419 419 420 420 421 422 422 422 423 423 424 424 425 425 426 427 427 428 428 428 428 428 427 427 427 427 427 427 427 427 427 427 427 427 428 428 429 430 430 430 430 430 430 430 430 430 430 429 429 428 428 429 429 429 429 429 428 428 428 427 427 427 427 427 426 426 427 428 424 424 424 424 424 424 424 424 423 423 423 423 423 423 422 422 423 423 423 424 424 425 425 424 424 423 423 422 422 422 422 422 421 421 420 420 420 420 420 420 420 420 419 418 418 417 416 415 414 413 413 411 409 409 411 412 413 413 413 413 413 412 412 412 412 412 412 413 413 413 414 -9999 -9999 -9999 -9999 -9999 -9999 -9999 -9999 -9999 -9999 
-9999 -9999 -9999 -9999 -9999 -9999 -9999 -9999 -9999 -9999 -9999 -9999 -9999 -9999 -9999 -9999 -9999 411 412 412 413 413 414 414 415 415 415 416 417 417 418 419 419 420 420 421 421 422 422 422 423 424 424 425 425 426 426 426 426 426 425 425 425 425 425 425 425 425 425 425 425 425 426 426 427 428 428 428 428 428 428 428 428 428 428 427 427 427 427 427 426 427 427 427 426 426 426 425 425 425 425 425 425 424 424 423 422 422 422 422 422 422 422 422 422 421 421 421 421 421 421 421 421 421 421 422 423 423 423 422 422 421 421 420 420 420 420 420 419 419 419 418 418 418 418 418 418 418 417 417 416 415 414 413 412 412 411 409 407 407 409 410 411 411 411 411 411 410 410 410 410 410 411 411 411 412 412 412 -9999 -9999 -9999 -9999 -9999 -9999 -9999 -9999 -9999 
-9999 -9999 -9999 -9999 -9999 -9999 -9999 -9999 -9999 -9999 -9999 -9999 -9999 -9999 -9999 -9999 409 410 410 411 411 411 412 412 413 413 413 414 415 416 416 417 417 418 418 419 419 420 420 421 421 422 422 423 423 424 424 424 424 423 423 423 423 423 423 423 423 423 423 423 423 423 424 425 425 426 427 426 426 426 426 427 426 426 426 425 425 425 425 424 425 425 425 425 424 424 424 423 423 423 423 423 423 422 422 421 421 420 420 421 420 421 420 420 420 419 419 419 419 419 419 419 419 419 420 420 421 421 421 421 420 419 419 419 418 418 418 418 417 417 417 416 416 416 416 416 416 416 415 415 414 413 412 412 411 410 409 408 405 405 407 408 409 409 409 409 409 409 408 408 409 408 409 409 409 410 410 410 -9999 -9999 -9999 -9999 -9999 -9999 -9999 -9999 -9999 
-9999 -9999 -9999 -9999 -9999 -9999 -9999 -9999 -9999 -9999 -9999 -9999 -9999 -9999 -9999 407 407 408 408 409 409 410 410 410 411 411 412 413 413 414 415 415 416 416 416 417 417 418 418 419 419 420 420 421 421 422 422 422 422 422 421 421 421 421 421 421 421 421 421 421 421 422 422 423 424 424 425 425 424 424 425 425 424 424 424 424 423 423 422 423 423 423 423 423 423 422 422 421 421 421 421 421 421 420 420 419 419 419 418 419 419 419 418 418 418 417 417 417 417 417 417 417 417 417 418 418 419 419 419 418 418 417 417 417 416 416 416 416 415 415 415 414 414 414 414 414 414 414 413 413 412 412 411 410 409 409 408 406 404 403 405 406 407 407 407 407 407 407 407 407 407 407 407 407 407 408 408 408 -9999 -9999 -9999 -9999 -9999 -9999 -9999 -9999 -9999 
-9999 -9999 -9999 -9999 -9999 -9999 -9999 -9999 -9999 -9999 -9999 -9999 -9999 -9999 405 405 406 406 406 407 407 408 408 408 409 409 410 411 412 412 413 413 414 414 414 415 416 416 416 417 417 418 418 419 419 420 420 420 420 420 419 419 419 419 419 419 419 419 419 419 419 420 420 421 422 422 422 423 422 422 422 423 423 422 422 422 421 421 421 421 421 421 421 421 421 420 420 420 419 419 419 419 419 418 418 418 417 417 417 417 417 417 416 416 416 415 415 415 415 415 415 415 415 415 416 416 417 417 417 416 416 415 415 415 415 414 414 414 413 413 413 413 412 412 412 412 412 412 412 411 411 410 409 409 408 407 406 405 402 402 403 404 405 406 405 405 405 405 405 405 405 405 405 405 406 406 406 406 -9999 -9999 -9999 -9999 -9999 -9999 -9999 -9999 -9999 
-9999 -9999 -9999 -9999 -9999 -9999 -9999 -9999 -9999 -9999 -9999 -9999 -9999 -9999 403 404 404 404 405 405 406 406 407 407 407 408 408 409 409 410 411 411 412 412 413 413 413 414 414 415 415 416 417 417 417 417 418 418 418 418 417 417 417 417 417 417 417 417 417 417 418 418 419 419 420 420 420 420 420 421 421 421 421 421 420 420 419 419 419 419 419 419 419 419 419 418 418 418 418 417 417 417 417 417 416 416 415 415 415 415 415 415 415 414 414 414 413 413 413 413 413 413 413 413 414 414 415 415 415 414 414 414 413 413 412 412 412 412 411 411 411 411 410 410 410 410 410 410 410 409 409 408 408 407 406 405 405 404 401 401 401 402 403 404 404 404 403 403 403 403 403 403 403 403 404 404 404 404 404 -9999 -9999 -9999 -9999 -9999 -9999 -9999 -9999 
-9999 -9999 -9999 -9999 -9999 -9999 -9999 -9999 -9999 -9999 -9999 -9999 -9999 401 402 402 402 403 403 403 404 404 404 405 406 406 407 407 407 408 409 409 410 410 411 411 412 412 412 413 413 414 415 415 415 416 416 416 416 416 416 416 416 416 415 415 415 415 415 415 416 416 417 417 418 418 418 419 419 419 419 419 419 418 418 418 418 417 417 417 417 417 417 417 417 416 416 416 416 415 415 415 415 415 414 414 414 413 413 413 413 413 413 413 412 412 411 411 411 411 411 411 411 411 412 412 413 413 413 412 412 412 411 411 410 410 410 410 409 409 409 409 409 409 408 408 408 408 408 408 407 407 406 405 405 404 403 402 400 399 399 400 400 401 402 402 402 402 402 401 401 401 401 402 402 402 402 402 402 -9999 -9999 -9999 -9999 -9999 -9999 -9999 -9999 
-9999 -9999 -9999 -9999 -9999 -9999 -9999 -9999 -9999 -9999 -9999 -9999 399 400 400 401 401 401 401 402 402 402 403 403 404 404 405 405 406 406 407 408 408 409 409 409 410 410 411 411 411 412 413 413 413 414 414 414 414 414 414 414 414 414 414 413 413 413 413 413 414 414 415 415 416 416 416 417 417 417 417 417 417 416 416 416 416 416 415 415 415 415 415 415 415 415 414 414 414 414 413 413 413 413 413 412 412 412 412 411 411 411 411 411 410 410 410 409 409 409 409 409 409 410 410 411 411 411 411 411 410 410 409 409 409 408 408 408 408 407 407 407 407 407 406 406 406 406 406 406 405 405 404 404 403 402 402 402 400 397 397 397 398 399 400 400 400 400 400 400 399 400 400 400 400 400 400 401 400 -9999 -9999 -9999 -9999 -9999 -9999 -9999 -9999 
-9999 -9999 -9999 -9999 -9999 -9999 -9999 -9999 -9999 -9999 -9999 398 398 398 399 399 399 399 400 400 400 401 401 402 402 402 403 403 404 405 405 406 406 407 407 408 408 408 409 409 410 410 411 411 411 412 412 412 412 412 412 412 412 412 412 412 411 411 411 412 412 412 413 414 414 414 414 415 415 415 415 415 415 414 414 414 414 413 413 413 413 413 413 413 413 413 412 412 412 412 412 411 411 411 411 411 410 410 410 409 409 409 409 409 409 408 408 408 407 407 407 408 407 408 408 409 409 409 409 409 409 408 408 407 407 406 406 406 406 406 405 405 405 405 405 405 405 405 404 404 404 403 402 402 401 401 400 400 399 397 396 395 396 396 397 397 398 398 398 398 398 398 398 398 398 398 399 399 399 -9999 -9999 -9999 -9999 -9999 -9999 -9999 -9999 
-9999 -9999 -9999 -9999 -9999 -9999 -9999 -9999 -9999 -9999 396 396 396 397 397 397 398 398 398 398 399 399 399 400 400 401 401 402 402 403 403 404 404 405 405 406 406 407 407 407 408 408 409 409 409 410 410 410 410 410 410 410 410 410 410 410 409 409 410 410 410 410 411 411 412 412 412 413 413 413 413 413 413 413 412 412 412 412 412 411 411 411 411 411 411 411 410 410 410 410 410 410 410 409 409 409 409 409 408 407 407 407 407 407 407 406 406 406 405 405 405 405 406 406 407 407 407 407 407 407 407 406 406 405 405 404 404 404 404 404 403 403 403 403 403 403 403 403 403 402 402 401 401 400 400 399 399 398 398 398 396 394 393 394 395 395 395 396 396 396 396 396 396 396 397 397 397 397 397 -9999 -9999 -9999 -9999 -9999 -9999 -9999 -9999 
-9999 -9999 -9999 -9999 -9999 -9999 -9999 -9999 -9999 394 394 394 395 395 395 396 396 396 396 397 397 397 398 398 398 399 400 400 401 401 402 402 403 403 404 404 404 405 405 406 406 406 407 407 407 408 408 408 408 408 408 408 408 408 408 408 408 408 408 408 408 409 409 410 410 410 410 411 411 411 411 411 411 411 410 410 410 410 410 410 409 409 409 409 409 409 409 408 408 408 408 408 408 408 408 408 408 407 407 406 405 405 406 405 405 405 404 404 404 403 403 404 404 404 405 405 405 405 405 405 405 405 404 403 403 403 402 402 402 402 401 401 401 401 401 401 401 401 401 401 400 400 399 399 398 397 397 397 397 397 396 394 392 391 392 393 393 393 394 394 394 395 394 395 395 395 395 395 395 395 -9999 -9999 -9999 -9999 -9999 -9999 -9999 
-9999 -9999 -9999 -9999 -9999 -9999 -9999 -9999 392 393 393 393 393 394 394 394 395 395 395 395 395 396 396 396 397 397 398 398 399 399 400 400 401 401 402 402 403 403 403 404 404 405 405 406 406 406 406 406 406 406 406 406 406 406 406 406 406 406 406 406 406 407 407 408 408 408 409 409 409 409 409 409 409 409 408 408 408 408 408 408 408 407 407 407 407 407 407 407 406 406 406 406 406 406 406 406 406 406 405 404 404 404 404 404 403 403 403 402 402 402 402 402 402 402 403 403 403 403 403 403 403 402 402 402 401 401 401 400 400 400 400 400 399 399 399 399 399 399 399 399 399 398 397 397 396 396 396 395 395 396 395 392 391 390 390 390 391 391 392 392 393 393 393 393 393 393 393 393 393 393 -9999 -9999 -9999 -9999 -9999 -9999 -9999 
-9999 -9999 -9999 -9999 -9999 -9999 -9999 -9999 391 391 391 392 392 392 392 393 393 393 393 394 394 394 394 395 395 396 396 397 397 398 398 399 399 400 400 400 401 401 402 402 402 403 403 403 404 404 404 404 405 404 404 404 404 404 404 404 404 404 404 404 404 405 405 406 406 406 407 407 408 408 407 407 407 407 406 406 406 406 406 406 406 406 406 406 405 405 405 405 404 404 404 404 404 404 404 404 405 405 404 403 402 402 402 402 402 401 401 401 400 400 400 400 400 401 401 401 401 401 401 401 401 400 400 400 399 399 399 398 398 398 398 398 398 398 397 397 397 397 397 397 397 396 396 395 395 394 394 394 394 394 394 392 390 389 389 388 389 389 389 390 391 391 391 391 391 391 391 391 391 391 -9999 -9999 -9999 -9999 -9999 -9999 -9999 
-9999 -9999 -9999 -9999 -9999 -9999 -9999 389 389 390 390 390 390 391 391 391 391 391 392 392 392 392 393 393 393 394 395 395 395 396 396 397 397 398 398 399 399 399 400 400 401 401 401 401 402 402 402 402 403 402 402 402 402 402 402 402 402 402 402 402 403 403 403 404 404 405 405 405 406 406 406 405 405 405 405 405 404 404 404 404 404 404 404 404 404 403 403 403 403 402 403 402 402 402 402 403 404 404 403 401 400 400 400 400 400 400 399 399 398 398 398 398 398 399 399 399 399 399 399 399 399 398 398 398 397 397 397 396 397 396 396 396 396 396 396 395 396 396 396 396 395 395 394 394 393 393 393 392 392 392 393 391 390 388 388 387 387 387 387 388 388 390 389 389 389 389 389 390 389 389 -9999 -9999 -9999 -9999 -9999 -9999 -9999 
-9999 -9999 -9999 -9999 -9999 -9999 387 387 388 388 389 389 389 389 389 390 390 390 390 391 391 391 391 391 392 392 393 393 394 394 395 395 396 396 396 397 397 397 398 398 399 399 400 400 400 400 400 400 401 401 400 400 400 400 400 400 400 400 400 400 400 401 402 402 402 403 403 404 404 404 404 403 403 403 403 402 402 403 403 402 402 402 402 402 402 401 401 401 401 401 401 401 400 400 401 401 402 401 400 399 398 399 399 398 398 398 398 397 397 397 397 397 397 397 397 397 397 397 397 397 397 397 396 396 396 395 395 395 395 394 394 394 394 394 394 394 394 394 394 394 394 393 393 392 392 392 391 391 391 391 391 391 390 388 387 386 385 385 385 386 387 388 388 388 388 388 388 388 388 387 -9999 -9999 -9999 -9999 -9999 -9999 -9999 
-9999 -9999 -9999 -9999 -9999 386 386 386 387 387 387 388 388 388 388 388 388 389 389 389 389 389 389 390 390 391 391 392 392 392 393 393 394 394 395 395 395 396 396 396 397 397 398 398 398 398 398 399 399 399 398 398 398 398 398 398 398 398 398 398 399 399 400 400 401 401 401 402 402 402 402 401 401 401 401 401 401 401 401 400 400 400 400 400 400 400 399 399 399 399 399 399 398 398 399 400 400 399 397 397 397 397 397 397 396 396 396 395 395 395 395 395 395 395 395 395 395 395 395 395 395 395 395 394 394 394 393 393 393 393 392 392 392 392 392 392 392 392 393 392 392 391 391 391 390 390 390 390 389 389 390 390 390 389 386 385 384 384 384 384 385 386 386 386 386 386 386 386 386 385 385 -9999 -9999 -9999 -9999 -9999 -9999 
-9999 -9999 -9999 -9999 384 385 385 385 385 386 386 386 386 386 387 387 387 387 387 387 388 388 388 388 388 389 389 390 390 391 391 392 392 393 393 393 393 394 394 395 395 395 396 396 396 397 397 397 397 397 396 396 396 397 396 396 396 396 396 396 397 397 398 398 399 399 400 400 400 400 400 399 399 399 399 398 398 399 398 398 398 398 398 398 398 398 397 397 397 397 398 396 396 396 398 399 398 397 396 395 395 395 395 395 395 394 394 394 394 393 393 393 393 393 394 394 394 394 394 393 393 393 393 392 392 392 391 391 391 391 391 391 390 390 390 390 390 391 391 390 390 390 389 389 389 389 388 388 388 388 388 388 388 388 386 384 384 383 383 383 383 384 384 384 384 384 383 383 383 383 383 -9999 -9999 -9999 -9999 -9999 -9999 
-9999 -9999 -9999 383 383 383 384 384 384 384 385 385 385 385 385 386 386 385 385 386 386 386 386 387 387 387 388 388 389 389 390 390 390 391 391 391 391 392 393 393 393 394 394 394 394 395 395 395 395 395 394 394 394 395 395 395 394 394 395 395 395 396 396 397 397 397 398 398 398 398 398 398 398 397 397 396 396 396 396 396 396 396 396 396 396 396 396 395 395 395 395 393 394 393 394 395 395 394 393 394 394 394 394 394 393 393 392 392 392 392 392 392 391 392 392 392 392 392 392 392 392 391 391 391 390 390 390 390 389 389 389 389 389 389 389 389 389 389 388 388 388 388 388 388 388 387 387 387 387 387 387 386 386 386 385 383 383 382 383 383 383 383 383 383 383 383 383 383 383 383 382 -9999 -9999 -9999 -9999 -9999 -9999 
-9999 -9999 -9999 382 382 382 383 383 383 383 384 384 384 384 384 384 384 384 384 384 385 385 385 385 385 386 386 387 387 387 388 388 389 389 389 389 390 390 391 391 391 392 392 392 393 393 393 393 393 393 392 392 392 392 393 393 393 393 393 393 393 394 395 395 395 396 396 396 396 397 397 396 396 395 395 395 394 394 394 394 394 394 394 394 394 394 394 394 393 393 392 392 392 392 391 391 391 391 392 392 392 392 392 392 392 391 391 391 390 390 390 390 390 390 390 390 390 390 390 390 390 389 389 389 389 388 388 388 388 388 387 387 387 387 387 387 387 387 386 386 386 386 386 386 386 386 385 385 385 385 384 384 384 384 383 383 382 380 382 382 382 382 382 381 381 381 381 381 381 381 381 -9999 -9999 -9999 -9999 -9999 -9999 
-9999 -9999 381 381 381 381 382 382 382 382 382 382 383 383 383 383 383 383 383 383 383 383 383 384 384 384 385 385 386 386 386 387 387 387 387 388 388 389 389 389 390 390 390 391 391 391 391 392 391 391 391 391 390 391 391 391 391 391 391 391 391 392 393 393 393 393 393 394 394 395 395 394 394 394 393 393 393 392 392 392 392 393 393 393 393 392 392 392 392 391 391 390 390 390 389 389 389 390 390 390 390 391 391 390 390 390 389 389 389 388 388 388 388 388 388 388 388 388 388 388 388 388 388 387 387 387 386 386 386 386 386 386 386 385 385 385 385 384 384 384 384 384 384 384 384 384 383 383 383 383 383 383 383 383 383 382 380 379 380 380 380 380 380 380 380 379 379 379 379 379 379 -9999 -9999 -9999 -9999 -9999 -9999 
-9999 379 379 380 380 380 380 380 381 381 381 381 381 381 381 381 381 382 382 382 382 382 382 382 382 383 383 383 384 384 385 385 385 385 386 386 386 387 387 388 388 388 389 389 389 389 390 390 390 389 388 389 389 389 389 389 389 389 389 389 389 389 390 390 390 390 391 391 391 391 392 392 392 392 392 391 391 391 391 391 391 391 391 391 391 391 391 390 390 389 389 388 388 388 388 388 388 388 388 389 389 389 389 389 388 388 388 387 387 387 387 387 387 387 387 387 387 387 387 387 386 386 386 386 385 385 385 385 384 384 384 383 383 383 383 383 383 383 383 383 383 383 383 383 383 383 383 383 383 383 383 382 382 382 381 380 379 378 379 379 379 379 378 378 378 378 378 378 378 378 377 377 -9999 -9999 -9999 -9999 -9999 
379 379 379 379 379 380 380 380 380 380 380 380 380 380 380 380 380 380 380 381 381 381 381 381 381 381 381 382 382 382 382 383 383 384 384 384 385 385 386 386 386 387 387 387 387 388 388 388 388 387 387 387 387 387 387 387 387 387 387 387 387 387 387 388 388 388 388 389 389 389 389 389 389 390 390 389 389 389 389 389 389 389 389 389 389 389 389 389 388 388 387 387 387 387 386 386 386 386 387 387 387 387 387 387 387 387 386 386 386 385 385 385 385 385 385 385 385 385 385 385 384 384 384 383 383 383 383 383 383 382 382 382 382 382 382 382 382 382 382 382 382 382 382 382 382 382 381 381 381 381 380 380 380 379 379 379 377 377 377 377 377 377 377 377 377 376 376 376 376 376 376 376 -9999 -9999 -9999 -9999 -9999 
377 377 377 378 378 378 379 379 379 379 379 379 380 380 380 380 380 380 380 380 380 380 380 380 380 380 380 380 381 381 381 381 381 382 382 382 383 383 384 384 384 385 385 385 386 385 386 385 385 385 385 384 384 385 385 385 385 385 385 385 385 385 385 386 386 386 386 387 387 387 387 387 387 387 387 387 387 387 387 387 387 387 387 387 388 387 387 387 387 386 386 385 385 385 385 385 385 385 385 386 386 386 386 386 386 385 385 385 384 384 384 384 384 384 383 383 383 383 382 382 382 382 382 382 382 382 382 382 382 382 382 381 381 381 381 381 381 380 380 380 380 380 380 380 380 379 379 379 379 379 378 378 378 378 377 377 376 376 376 376 376 376 375 375 375 375 375 375 375 375 374 374 -9999 -9999 -9999 -9999 -9999 
375 376 376 376 376 377 377 377 377 378 378 378 378 379 379 379 379 379 379 379 379 379 378 379 379 379 379 380 380 380 380 381 381 381 381 381 381 382 382 382 382 383 383 383 383 383 383 383 383 383 383 382 383 383 383 383 383 383 383 383 383 383 383 384 384 384 384 385 385 385 385 385 385 385 385 385 385 385 385 385 385 385 385 386 385 386 386 385 385 385 384 384 383 383 383 383 383 383 384 384 384 384 384 383 383 383 383 382 382 382 382 382 382 382 381 381 381 381 381 381 381 381 381 381 381 381 381 380 380 380 380 380 379 379 379 379 379 379 378 378 378 378 378 378 378 377 377 377 377 377 376 376 376 376 376 375 375 375 375 375 374 374 374 374 374 374 374 374 374 374 374 374 -9999 -9999 -9999 -9999 -9999 
375 375 375 375 375 375 375 375 375 375 376 376 376 377 377 377 377 377 377 378 378 378 378 378 378 378 378 378 378 379 379 379 379 380 380 381 381 381 382 382 382 382 382 382 382 382 382 382 382 382 382 382 382 382 382 382 382 382 382 382 382 382 382 382 383 383 383 383 383 383 383 384 383 383 383 383 383 383 383 383 383 383 383 383 383 383 383 383 382 382 382 382 382 382 381 381 381 382 382 382 382 382 382 382 382 382 381 381 381 381 381 381 381 381 381 381 381 381 381 380 380 380 380 380 379 379 379 379 379 378 378 378 378 377 377 377 377 377 377 376 376 376 376 376 376 376 375 375 375 375 375 374 374 374 374 374 374 374 374 374 374 374 374 374 374 374 374 374 374 373 373 373 374 -9999 -9999 -9999 -9999 
375 375 375 375 375 375 375 375 375 375 375 375 375 375 375 375 375 375 375 376 376 376 376 376 376 377 377 377 377 378 378 378 378 378 378 379 379 380 380 380 381 381 381 381 381 382 381 382 381 381 381 381 381 381 381 380 380 380 381 381 381 381 381 381 382 382 383 382 382 383 383 383 383 383 383 382 382 382 382 382 382 382 382 382 382 381 381 381 381 381 381 381 381 381 381 381 381 381 381 382 382 382 381 381 381 381 381 380 380 380 380 380 380 379 379 379 379 379 379 379 378 378 378 378 377 377 377 377 377 377 376 376 376 375 374 374 376 375 375 375 374 374 374 374 374 374 374 374 374 374 374 374 374 374 374 374 374 374 374 374 374 374 374 374 373 373 373 373 373 373 373 373 373 -9999 -9999 -9999 -9999 
375 375 375 375 375 375 375 375 375 375 375 375 375 375 375 375 375 375 375 375 375 375 375 375 375 375 375 375 376 376 376 376 376 377 377 377 377 377 378 378 378 378 379 379 379 379 379 379 379 379 379 379 379 379 379 379 379 379 379 379 379 379 379 380 380 380 381 381 381 381 381 381 381 381 381 381 381 381 381 381 381 381 381 381 381 381 381 381 381 380 380 380 380 380 380 380 380 380 380 380 380 380 379 379 379 379 379 379 379 378 378 378 378 378 378 378 377 377 377 377 376 376 376 376 376 376 375 375 375 375 375 374 374 374 374 374 374 374 374 374 374 374 374 374 374 374 374 374 374 374 374 374 374 374 374 374 374 373 374 373 373 373 373 373 373 372 372 372 372 372 371 371 371 -9999 -9999 -9999 -9999 
375 375 375 375 375 375 375 375 375 375 375 375 374 374 374 374 374 374 374 374 374 374 374 374 374 374 374 374 374 374 374 374 374 375 375 375 375 375 376 376 376 376 377 377 377 377 377 377 377 377 377 377 377 377 377 377 377 377 377 377 377 377 377 377 378 378 378 379 379 379 379 379 379 379 379 379 379 379 379 379 379 379 379 379 379 379 379 379 379 379 379 378 378 378 378 378 378 378 378 378 378 378 378 377 377 377 377 377 377 377 376 376 376 376 376 376 376 375 375 375 374 374 374 374 374 374 374 374 374 374 374 374 374 374 374 374 374 374 374 374 374 374 374 374 374 374 374 374 374 374 374 374 374 374 374 374 373 372 373 373 372 372 371 371 371 370 370 370 370 369 369 369 369 -9999 -9999 -9999 -9999 
374 374 374 374 374 374 374 374 374 374 374 374 374 374 374 375 374 374 374 374 374 374 374 374 374 374 374 374 374 374 374 374 374 374 374 374 374 374 374 374 375 374 374 375 375 375 375 375 375 375 375 375 375 375 375 375 375 375 375 375 375 376 376 376 376 376 377 377 377 377 377 377 377 377 377 377 377 377 377 377 377 377 377 377 377 377 377 377 377 377 377 377 377 377 376 376 376 376 376 376 376 376 375 375 375 375 375 375 375 375 374 374 374 374 374 374 374 374 374 374 374 374 374 374 374 374 374 374 373 373 373 373 373 374 374 374 374 374 374 374 374 374 374 374 374 374 374 374 374 374 374 374 374 374 374 373 372 371 371 371 370 370 370 369 369 368 368 368 368 367 367 367 367 -9999 -9999 -9999 -9999 
372 372 372 372 373 373 373 373 373 373 373 373 373 373 373 373 373 373 373 373 373 374 374 374 374 374 374 374 374 374 374 374 374 374 374 374 374 374 374 374 374 374 374 374 374 374 374 374 374 374 374 374 374 374 374 374 374 374 374 374 374 374 375 375 375 375 375 375 375 375 375 375 375 375 375 375 375 375 375 375 375 375 375 375 375 375 375 375 375 375 375 374 374 374 374 374 374 374 374 374 374 374 374 374 374 374 374 374 374 374 374 374 374 374 374 374 374 374 374 374 374 373 373 373 373 373 373 373 373 373 373 373 373 373 373 373 373 372 372 372 372 373 373 373 372 372 372 372 372 372 372 372 372 372 372 371 371 370 370 369 368 368 368 368 367 367 367 366 366 366 365 365 365 365 -9999 -9999 -9999 
373 373 373 373 373 372 372 372 372 372 372 372 372 372 372 372 372 372 372 372 372 372 372 372 372 372 372 372 373 373 373 373 373 373 373 373 373 373 373 373 374 374 374 374 374 374 374 374 374 374 374 374 374 374 374 374 374 374 374 374 374 374 374 374 374 374 374 374 374 374 374 374 374 374 374 374 374 374 374 374 374 374 374 374 374 374 374 374 374 374 374 374 374 374 374 374 374 374 374 374 374 374 374 374 374 374 374 374 374 374 374 374 374 374 374 374 373 374 374 374 374 374 374 373 373 373 373 373 373 372 372 372 372 372 372 371 371 371 371 371 371 371 371 371 371 371 371 371 371 371 371 371 371 371 370 370 369 369 368 368 367 367 367 366 366 365 365 364 365 365 364 364 364 363 -9999 -9999 -9999 
373 373 373 373 373 373 372 372 372 372 372 372 372 372 372 372 372 372 372 372 372 372 372 372 372 372 372 371 371 371 371 371 371 371 371 371 371 371 372 372 372 372 372 372 372 372 373 373 373 373 373 373 373 374 374 374 374 374 374 374 374 374 374 374 374 374 374 374 374 374 374 374 374 374 374 374 374 374 374 374 374 374 374 374 374 374 374 374 374 374 374 374 374 374 374 374 374 374 374 374 374 374 374 374 374 374 374 374 374 374 374 374 374 373 373 373 373 372 372 372 372 372 372 372 371 371 371 371 371 370 370 370 370 370 370 369 369 369 369 369 369 369 370 370 370 370 370 370 370 370 369 369 368 368 367 367 366 366 366 365 365 364 364 364 364 364 364 364 364 364 364 364 364 364 -9999 -9999 -9999 
373 373 373 373 373 373 373 372 372 372 372 372 372 372 372 372 372 372 372 372 372 372 372 372 372 372 372 372 372 372 372 372 372 371 371 371 371 371 371 371 371 371 371 371 370 370 371 371 371 371 371 371 372 371 372 372 372 372 372 372 372 372 372 373 373 373 373 373 373 373 373 373 373 374 374 374 374 374 374 374 374 374 374 374 374 374 374 374 374 374 374 374 374 374 374 374 374 374 374 374 374 374 374 373 373 373 373 373 372 372 372 372 372 371 371 371 371 371 370 370 370 370 370 370 369 369 369 369 369 369 368 368 368 368 368 368 368 368 368 368 368 368 368 368 368 368 367 367 367 366 366 366 365 365 365 364 364 365 365 364 364 364 364 364 364 364 364 364 364 364 364 364 364 364 -9999 -9999 -9999 
-9999 373 373 373 372 372 372 372 372 372 372 372 372 372 372 372 372 372 372 372 372 372 372 372 372 372 372 372 372 372 372 372 372 372 371 371 371 371 371 371 371 371 371 371 371 371 371 371 371 371 371 371 371 370 371 370 370 370 370 370 370 370 370 370 370 370 371 371 371 371 371 371 371 372 372 372 372 372 372 372 372 372 372 372 372 372 372 372 372 372 372 372 372 372 372 372 372 372 372 372 372 372 372 372 371 371 371 371 371 370 370 370 370 370 369 369 369 369 369 369 369 369 369 368 368 368 368 368 368 368 368 368 367 367 367 367 367 367 366 366 366 366 366 365 365 365 365 365 365 365 365 365 365 365 365 365 365 365 365 365 364 364 364 364 364 364 364 364 364 364 364 364 364 364 -9999 -9999 -9999 
-9999 372 372 372 372 372 372 372 372 372 372 372 372 372 372 372 372 372 372 372 372 372 372 372 372 372 372 372 372 372 372 372 372 372 372 371 371 371 371 371 371 371 371 371 371 371 371 371 371 371 371 371 371 371 371 371 371 371 371 371 370 370 370 370 370 370 370 370 370 370 370 370 370 370 370 370 370 370 370 370 370 370 370 370 370 370 370 370 370 370 370 370 370 370 370 370 370 370 370 370 370 370 370 370 370 370 370 370 369 369 369 369 369 369 369 368 368 368 368 368 368 368 368 368 368 367 367 367 367 367 367 366 366 366 366 366 366 366 366 366 366 366 366 366 366 365 365 365 365 365 365 365 365 365 365 365 365 365 365 365 364 364 364 364 364 364 364 364 364 364 364 364 364 364 363 -9999 -9999 
-9999 371 371 371 371 371 371 371 371 371 371 371 371 371 371 371 371 372 372 372 372 372 372 372 372 372 372 372 372 372 372 372 372 371 371 371 371 371 371 371 371 371 371 371 371 371 371 371 371 371 371 371 371 371 371 371 371 371 371 371 371 371 371 371 370 370 370 370 370 370 370 370 370 370 370 370 370 370 370 370 370 370 369 369 369 369 369 369 369 369 369 369 369 368 368 369 369 369 369 369 369 369 369 369 369 369 368 368 368 368 368 368 368 368 368 367 367 367 367 367 367 367 367 367 366 366 366 366 366 366 366 366 366 366 366 366 366 366 366 366 366 366 366 366 366 366 366 365 365 365 365 365 365 365 365 365 365 365 365 365 365 364 364 364 364 364 364 364 363 363 363 363 363 362 362 -9999 -9999 
-9999 370 370 370 370 370 370 370 370 370 370 370 370 370 370 370 370 371 371 371 371 371 371 371 371 371 371 371 371 371 371 371 371 371 371 371 371 371 371 371 371 371 371 371 371 371 371 371 371 371 371 371 371 371 371 371 371 371 371 371 371 371 371 371 371 370 370 370 370 370 370 370 370 370 370 370 370 370 370 370 370 370 370 370 369 369 369 369 369 369 369 369 369 369 369 369 369 369 368 368 368 368 368 368 368 368 368 368 368 368 367 367 367 367 367 367 367 367 367 367 367 367 367 367 367 367 367 367 366 366 366 366 366 366 366 366 366 366 366 366 366 366 366 366 366 366 366 366 365 365 365 365 365 365 365 365 365 364 364 364 364 364 364 364 363 363 363 362 362 362 361 361 361 360 360 -9999 -9999 
-9999 368 368 368 368 368 368 368 368 368 368 368 368 369 368 369 369 369 369 369 369 369 369 369 370 370 370 370 370 370 370 370 370 370 371 371 371 371 371 371 371 371 371 371 371 371 371 371 371 371 371 371 371 371 371 371 371 370 370 370 370 370 370 370 370 370 370 370 370 370 370 370 370 370 370 370 370 370 370 370 370 370 370 370 370 369 369 369 369 369 369 369 369 369 369 369 369 369 369 368 368 368 368 368 368 368 368 368 368 368 368 368 368 367 367 367 367 367 367 367 367 367 367 367 367 367 367 367 367 367 367 367 366 366 366 366 366 366 366 366 366 366 366 366 366 366 366 366 365 365 365 365 364 364 364 364 363 363 363 363 363 363 363 363 362 361 360 360 360 360 360 360 360 360 360 -9999 -9999 
-9999 367 367 366 367 367 367 367 367 367 367 367 367 367 367 367 367 367 367 367 367 367 368 368 368 368 368 368 368 368 369 368 369 369 369 369 369 369 369 369 369 369 369 370 370 370 370 370 370 370 370 370 370 370 370 370 370 370 370 370 370 370 369 369 370 370 370 370 370 370 370 370 370 370 370 370 370 370 370 370 370 370 370 370 370 369 369 369 369 369 369 369 369 369 369 369 369 369 369 369 368 368 368 368 368 368 368 368 368 368 368 368 368 368 368 367 367 367 367 367 367 367 367 367 367 367 367 367 367 367 367 367 367 367 366 366 366 366 366 366 366 365 364 365 365 365 365 364 364 363 363 362 362 362 362 362 362 362 361 361 361 361 361 360 360 360 360 360 360 360 359 360 360 359 360 360 -9999 
-9999 -9999 -9999 -9999 366 366 366 366 366 366 366 365 365 365 365 366 366 366 366 366 366 366 366 366 367 367 367 367 367 367 367 368 368 368 368 368 368 368 368 368 368 368 369 369 369 369 369 369 369 370 370 370 370 370 370 370 370 370 369 369 368 368 368 368 368 368 368 369 368 368 369 369 369 369 369 369 369 369 369 369 369 369 369 369 369 369 369 369 369 369 369 369 369 369 369 369 369 369 369 369 369 368 368 368 368 368 368 368 368 368 368 368 368 368 368 368 368 368 367 367 367 367 367 367 367 367 367 367 367 367 366 366 366 366 366 365 365 365 364 364 364 363 362 362 362 362 363 362 361 361 360 360 360 361 361 361 361 361 360 359 360 360 360 360 360 360 -9999 -9999 -9999 -9999 -9999 -9999 359 359 360 360 -9999 
-9999 -9999 -9999 -9999 -9999 -9999 -9999 -9999 -9999 -9999 -9999 -9999 -9999 -9999 -9999 -9999 -9999 -9999 -9999 -9999 -9999 366 366 366 366 366 367 367 367 367 367 367 367 367 368 368 368 368 368 368 368 368 368 369 369 369 369 369 369 369 370 370 370 370 370 370 369 368 368 368 368 368 368 368 368 368 368 368 368 368 368 368 368 368 368 368 368 368 368 368 368 367 368 368 368 368 368 368 368 368 368 368 368 368 368 368 368 368 368 368 368 368 368 368 368 368 368 368 368 368 368 368 368 367 367 367 367 367 367 367 367 367 367 366 366 366 366 366 365 365 365 364 363 363 363 363 363 363 362 362 362 360 361 360 360 360 361 360 360 -9999 -9999 -9999 360 360 360 360 360 360 360 360 -9999 -9999 360 360 -9999 -9999 -9999 -9999 -9999 -9999 -9999 -9999 360 360 360 360 -9999 
-9999 -9999 -9999 -9999 -9999 -9999 -9999 -9999 -9999 -9999 -9999 -9999 -9999 -9999 -9999 -9999 -9999 -9999 -9999 -9999 -9999 -9999 -9999 -9999 -9999 -9999 -9999 -9999 -9999 -9999 -9999 -9999 -9999 -9999 -9999 -9999 -9999 368 368 368 368 368 368 369 369 369 369 369 369 369 369 369 369 369 369 369 368 368 368 368 368 367 367 367 367 368 367 367 367 367 367 368 367 367 367 367 367 367 367 367 367 367 367 367 367 367 367 367 367 367 367 367 367 367 367 367 366 366 366 366 366 366 366 366 366 366 366 366 366 366 366 366 366 366 366 366 366 366 366 365 365 365 365 365 364 364 364 364 364 363 363 362 362 361 361 361 361 361 360 360 360 360 360 360 360 360 360 -9999 -9999 -9999 -9999 -9999 360 360 360 360 360 360 -9999 -9999 -9999 -9999 -9999 360 -9999 -9999 -9999 -9999 -9999 -9999 -9999 -9999 -9999 360 359 360 -9999 
-9999 -9999 -9999 -9999 -9999 -9999 -9999 -9999 -9999 -9999 -9999 -9999 -9999 -9999 -9999 -9999 -9999 -9999 -9999 -9999 -9999 -9999 -9999 -9999 -9999 -9999 -9999 -9999 -9999 -9999 -9999 -9999 -9999 -9999 -9999 -9999 -9999 -9999 -9999 -9999 -9999 -9999 -9999 -9999 -9999 -9999 -9999 -9999 -9999 -9999 -9999 -9999 -9999 368 368 367 367 367 367 368 367 367 367 367 367 367 367 367 367 367 367 367 367 367 367 366 367 367 366 366 366 366 367 367 366 366 366 366 366 366 366 366 366 366 366 366 366 366 366 366 366 366 366 366 366 366 366 366 366 366 366 366 366 365 365 365 365 364 364 364 364 363 363 363 362 362 362 362 362 361 361 361 360 360 360 360 360 360 360 360 360 359 360 360 360 -9999 -9999 -9999 -9999 -9999 -9999 360 360 360 -9999 -9999 -9999 -9999 -9999 -9999 -9999 -9999 -9999 -9999 -9999 -9999 -9999 -9999 -9999 -9999 -9999 -9999 -9999 -9999 -9999 -9999 -9999 
-9999 -9999 -9999 -9999 -9999 -9999 -9999 -9999 -9999 -9999 -9999 -9999 -9999 -9999 -9999 -9999 -9999 -9999 -9999 -9999 -9999 -9999 -9999 -9999 -9999 -9999 -9999 -9999 -9999 -9999 -9999 -9999 -9999 -9999 -9999 -9999 -9999 -9999 -9999 -9999 -9999 -9999 -9999 -9999 -9999 -9999 -9999 -9999 -9999 -9999 -9999 -9999 -9999 -9999 -9999 -9999 -9999 -9999 -9999 -9999 -9999 -9999 -9999 -9999 -9999 -9999 -9999 -9999 -9999 -9999 366 366 366 366 366 366 366 366 366 366 366 366 366 366 366 366 366 366 366 366 366 366 366 366 366 366 366 366 365 366 365 365 365 365 366 365 365 365 365 365 365 365 365 365 364 363 363 362 362 362 362 362 362 362 361 361 361 361 360 360 360 360 360 360 360 360 360 360 360 360 360 360 360 -9999 -9999 -9999 -9999 -9999 -9999 -9999 360 360 -9999 -9999 -9999 -9999 -9999 -9999 -9999 -9999 -9999 -9999 -9999 -9999 -9999 -9999 -9999 -9999 -9999 -9999 -9999 -9999 -9999 -9999 -9999 -9999 -9999 
-9999 -9999 -9999 -9999 -9999 -9999 -9999 -9999 -9999 -9999 -9999 -9999 -9999 -9999 -9999 -9999 -9999 -9999 -9999 -9999 -9999 -9999 -9999 -9999 -9999 -9999 -9999 -9999 -9999 -9999 -9999 -9999 -9999 -9999 -9999 -9999 -9999 -9999 -9999 -9999 -9999 -9999 -9999 -9999 -9999 -9999 -9999 -9999 -9999 -9999 -9999 -9999 -9999 -9999 -9999 -9999 -9999 -9999 -9999 -9999 -9999 -9999 -9999 -9999 -9999 -9999 -9999 -9999 -9999 -9999 -9999 -9999 -9999 -9999 -9999 -9999 -9999 -9999 -9999 -9999 -9999 -9999 -9999 -9999 -9999 -9999 365 365 366 365 365 365 365 365 366 365 365 365 365 365 365 365 365 365 365 365 365 365 365 364 364 364 364 363 363 362 362 361 361 361 361 361 361 360 360 361 361 360 360 -9999 -9999 -9999 360 360 360 360 360 360 360 360 360 360 -9999 -9999 -9999 -9999 -9999 -9999 -9999 -9999 -9999 360 -9999 -9999 -9999 -9999 -9999 -9999 -9999 -9999 -9999 -9999 -9999 -9999 -9999 -9999 -9999 -9999 -9999 -9999 -9999 -9999 -9999 -9999 -9999 -9999 -9999 
-9999 -9999 -9999 -9999 -9999 -9999 -9999 -9999 -9999 -9999 -9999 -9999 -9999 -9999 -9999 -9999 -9999 -9999 -9999 -9999 -9999 -9999 -9999 -9999 -9999 -9999 -9999 -9999 -9999 -9999 -9999 -9999 -9999 -9999 -9999 -9999 -9999 -9999 -9999 -9999 -9999 -9999 -9999 -9999 -9999 -9999 -9999 -9999 -9999 -9999 -9999 -9999 -9999 -9999 -9999 -9999 -9999 -9999 -9999 -9999 -9999 -9999 -9999 -9999 -9999 -9999 -9999 -9999 -9999 -9999 -9999 -9999 -9999 -9999 -9999 -9999 -9999 -9999 -9999 -9999 -9999 -9999 -9999 -9999 -9999 -9999 -9999 -9999 -9999 -9999 -9999 -9999 -9999 -9999 -9999 -9999 -9999 -9999 -9999 -9999 -9999 -9999 365 365 364 364 364 364 363 363 363 363 363 362 361 361 361 361 360 360 360 -9999 -9999 -9999 -9999 360 360 -9999 -9999 -9999 -9999 -9999 360 360 360 -9999 -9999 -9999 360 360 360 -9999 -9999 -9999 -9999 -9999 -9999 -9999 -9999 -9999 -9999 -9999 -9999 -9999 -9999 -9999 -9999 -9999 -9999 -9999 -9999 -9999 -9999 -9999 -9999 -9999 -9999 -9999 -9999 -9999 -9999 -9999 -9999 -9999 -9999 -9999 -9999 
-9999 -9999 -9999 -9999 -9999 -9999 -9999 -9999 -9999 -9999 -9999 -9999 -9999 -9999 -9999 -9999 -9999 -9999 -9999 -9999 -9999 -9999 -9999 -9999 -9999 -9999 -9999 -9999 -9999 -9999 -9999 -9999 -9999 -9999 -9999 -9999 -9999 -9999 -9999 -9999 -9999 -9999 -9999 -9999 -9999 -9999 -9999 -9999 -9999 -9999 -9999 -9999 -9999 -9999 -9999 -9999 -9999 -9999 -9999 -9999 -9999 -9999 -9999 -9999 -9999 -9999 -9999 -9999 -9999 -9999 -9999 -9999 -9999 -9999 -9999 -9999 -9999 -9999 -9999 -9999 -9999 -9999 -9999 -9999 -9999 -9999 -9999 -9999 -9999 -9999 -9999 -9999 -9999 -9999 -9999 -9999 -9999 -9999 -9999 -9999 -9999 -9999 -9999 -9999 -9999 -9999 -9999 -9999 -9999 -9999 -9999 -9999 -9999 -9999 -9999 -9999 -9999 -9999 -9999 -9999 -9999 -9999 -9999 -9999 -9999 -9999 -9999 -9999 -9999 -9999 -9999 -9999 -9999 -9999 -9999 -9999 -9999 -9999 -9999 -9999 -9999 -9999 -9999 -9999 -9999 -9999 -9999 -9999 -9999 -9999 -9999 -9999 -9999 -9999 -9999 -9999 -9999 -9999 -9999 -9999 -9999 -9999 -9999 -9999 -9999 -9999 -9999 -9999 -9999 -9999 -9999 -9999 -9999 -9999 -9999 -9999 -9999 
-9999 -9999 -9999 -9999 -9999 -9999 -9999 -9999 -9999 -9999 -9999 -9999 -9999 -9999 -9999 -9999 -9999 -9999 -9999 -9999 -9999 -9999 -9999 -9999 -9999 -9999 -9999 -9999 -9999 -9999 -9999 -9999 -9999 -9999 -9999 -9999 -9999 -9999 -9999 -9999 -9999 -9999 -9999 -9999 -9999 -9999 -9999 -9999 -9999 -9999 -9999 -9999 -9999 -9999 -9999 -9999 -9999 -9999 -9999 -9999 -9999 -9999 -9999 -9999 -9999 -9999 -9999 -9999 -9999 -9999 -9999 -9999 -9999 -9999 -9999 -9999 -9999 -9999 -9999 -9999 -9999 -9999 -9999 -9999 -9999 -9999 -9999 -9999 -9999 -9999 -9999 -9999 -9999 -9999 -9999 -9999 -9999 -9999 -9999 -9999 -9999 -9999 -9999 -9999 -9999 -9999 -9999 -9999 -9999 -9999 -9999 -9999 -9999 -9999 -9999 -9999 -9999 -9999 -9999 -9999 -9999 -9999 -9999 -9999 -9999 -9999 -9999 -9999 -9999 -9999 -9999 -9999 -9999 -9999 -9999 -9999 -9999 -9999 -9999 -9999 -9999 -9999 -9999 -9999 -9999 -9999 -9999 -9999 -9999 -9999 -9999 -9999 -9999 -9999 -9999 -9999 -9999 -9999 -9999 -9999 -9999 -9999 -9999 -9999 -9999 -9999 -9999 -9999 -9999 -9999 -9999 -9999 -9999 -9999 -9999 -9999 -9999 
-9999 -9999 -9999 -9999 -9999 -9999 -9999 -9999 -9999 -9999 -9999 -9999 -9999 -9999 -9999 -9999 -9999 -9999 -9999 -9999 -9999 -9999 -9999 -9999 -9999 -9999 -9999 -9999 -9999 -9999 -9999 -9999 -9999 -9999 -9999 -9999 -9999 -9999 -9999 -9999 -9999 -9999 -9999 -9999 -9999 -9999 -9999 -9999 -9999 -9999 -9999 -9999 -9999 -9999 -9999 -9999 -9999 -9999 -9999 -9999 -9999 -9999 -9999 -9999 -9999 -9999 -9999 -9999 -9999 -9999 -9999 -9999 -9999 -9999 -9999 -9999 -9999 -9999 -9999 -9999 -9999 -9999 -9999 -9999 -9999 -9999 -9999 -9999 -9999 -9999 -9999 -9999 -9999 -9999 -9999 -9999 -9999 -9999 -9999 -9999 -9999 -9999 -9999 -9999 -9999 -9999 -9999 -9999 -9999 -9999 -9999 -9999 -9999 -9999 -9999 -9999 -9999 -9999 -9999 -9999 -9999 -9999 -9999 -9999 -9999 -9999 -9999 -9999 -9999 -9999 -9999 -9999 -9999 -9999 -9999 -9999 -9999 -9999 -9999 -9999 -9999 -9999 -9999 -9999 -9999 -9999 -9999 -9999 -9999 -9999 -9999 -9999 -9999 -9999 -9999 -9999 -9999 -9999 -9999 -9999 -9999 -9999 -9999 -9999 -9999 -9999 -9999 -9999 -9999 -9999 -9999 -9999 -9999 -9999 -9999 -9999 -9999 
-9999 -9999 -9999 -9999 -9999 -9999 -9999 -9999 -9999 -9999 -9999 -9999 -9999 -9999 -9999 -9999 -9999 -9999 -9999 -9999 -9999 -9999 -9999 -9999 -9999 -9999 -9999 -9999 -9999 -9999 -9999 -9999 -9999 -9999 -9999 -9999 -9999 -9999 -9999 -9999 -9999 -9999 -9999 -9999 -9999 -9999 -9999 -9999 -9999 -9999 -9999 -9999 -9999 -9999 -9999 -9999 -9999 -9999 -9999 -9999 -9999 -9999 -9999 -9999 -9999 -9999 -9999 -9999 -9999 -9999 -9999 -9999 -9999 -9999 -9999 -9999 -9999 -9999 -9999 -9999 -9999 -9999 -9999 -9999 -9999 -9999 -9999 -9999 -9999 -9999 -9999 -9999 -9999 -9999 -9999 -9999 -9999 -9999 -9999 -9999 -9999 -9999 -9999 -9999 -9999 -9999 -9999 -9999 -9999 -9999 -9999 -9999 -9999 -9999 -9999 -9999 -9999 -9999 -9999 -9999 -9999 -9999 -9999 -9999 -9999 -9999 -9999 -9999 -9999 -9999 -9999 -9999 -9999 -9999 -9999 -9999 -9999 -9999 -9999 -9999 -9999 -9999 -9999 -9999 -9999 -9999 -9999 -9999 -9999 -9999 -9999 -9999 -9999 -9999 -9999 -9999 -9999 -9999 -9999 -9999 -9999 -9999 -9999 -9999 -9999 -9999 -9999 -9999 -9999 -9999 -9999 -9999 -9999 -9999 -9999 -9999 -9999 
-9999 -9999 -9999 -9999 -9999 -9999 -9999 -9999 -9999 -9999 -9999 -9999 -9999 -9999 -9999 -9999 -9999 -9999 -9999 -9999 -9999 -9999 -9999 -9999 -9999 -9999 -9999 -9999 -9999 -9999 -9999 -9999 -9999 -9999 -9999 -9999 -9999 -9999 -9999 -9999 -9999 -9999 -9999 -9999 -9999 -9999 -9999 -9999 -9999 -9999 -9999 -9999 -9999 -9999 -9999 -9999 -9999 -9999 -9999 -9999 -9999 -9999 -9999 -9999 -9999 -9999 -9999 -9999 -9999 -9999 -9999 -9999 -9999 -9999 -9999 -9999 -9999 -9999 -9999 -9999 -9999 -9999 -9999 -9999 -9999 -9999 -9999 -9999 -9999 -9999 -9999 -9999 -9999 -9999 -9999 -9999 -9999 -9999 -9999 -9999 -9999 -9999 -9999 -9999 -9999 -9999 -9999 -9999 -9999 -9999 -9999 -9999 -9999 -9999 -9999 -9999 -9999 -9999 -9999 -9999 -9999 -9999 -9999 -9999 -9999 -9999 -9999 -9999 -9999 -9999 -9999 -9999 -9999 -9999 -9999 -9999 -9999 -9999 -9999 -9999 -9999 -9999 -9999 -9999 -9999 -9999 -9999 -9999 -9999 -9999 -9999 -9999 -9999 -9999 -9999 -9999 -9999 -9999 -9999 -9999 -9999 -9999 -9999 -9999 -9999 -9999 -9999 -9999 -9999 -9999 -9999 -9999 -9999 -9999 -9999 -9999 -9999 
-9999 -9999 -9999 -9999 -9999 -9999 -9999 -9999 -9999 -9999 -9999 -9999 -9999 -9999 -9999 -9999 -9999 -9999 -9999 -9999 -9999 -9999 -9999 -9999 -9999 -9999 -9999 -9999 -9999 -9999 -9999 -9999 -9999 -9999 -9999 -9999 -9999 -9999 -9999 -9999 -9999 -9999 -9999 -9999 -9999 -9999 -9999 -9999 -9999 -9999 -9999 -9999 -9999 -9999 -9999 -9999 -9999 -9999 -9999 -9999 -9999 -9999 -9999 -9999 -9999 -9999 -9999 -9999 -9999 -9999 -9999 -9999 -9999 -9999 -9999 -9999 -9999 -9999 -9999 -9999 -9999 -9999 -9999 -9999 -9999 -9999 -9999 -9999 -9999 -9999 -9999 -9999 -9999 -9999 -9999 -9999 -9999 -9999 -9999 -9999 -9999 -9999 -9999 -9999 -9999 -9999 -9999 -9999 -9999 -9999 -9999 -9999 -9999 -9999 -9999 -9999 -9999 -9999 -9999 -9999 -9999 -9999 -9999 -9999 -9999 -9999 -9999 -9999 -9999 -9999 -9999 -9999 -9999 -9999 -9999 -9999 -9999 -9999 -9999 -9999 -9999 -9999 -9999 -9999 -9999 -9999 -9999 -9999 -9999 -9999 -9999 -9999 -9999 -9999 -9999 -9999 -9999 -9999 -9999 -9999 -9999 -9999 -9999 -9999 -9999 -9999 -9999 -9999 -9999 -9999 -9999 -9999 -9999 -9999 -9999 -9999 -9999 
-9999 -9999 -9999 -9999 -9999 -9999 -9999 -9999 -9999 -9999 -9999 -9999 -9999 -9999 -9999 -9999 -9999 -9999 -9999 -9999 -9999 -9999 -9999 -9999 -9999 -9999 -9999 -9999 -9999 -9999 -9999 -9999 -9999 -9999 -9999 -9999 -9999 -9999 -9999 -9999 -9999 -9999 -9999 -9999 -9999 -9999 -9999 -9999 -9999 -9999 -9999 -9999 -9999 -9999 -9999 -9999 -9999 -9999 -9999 -9999 -9999 -9999 -9999 -9999 -9999 -9999 -9999 -9999 -9999 -9999 -9999 -9999 -9999 -9999 -9999 -9999 -9999 -9999 -9999 -9999 -9999 -9999 -9999 -9999 -9999 -9999 -9999 -9999 -9999 -9999 -9999 -9999 -9999 -9999 -9999 -9999 -9999 -9999 -9999 -9999 -9999 -9999 -9999 -9999 -9999 -9999 -9999 -9999 -9999 -9999 -9999 -9999 -9999 -9999 -9999 -9999 -9999 -9999 -9999 -9999 -9999 -9999 -9999 -9999 -9999 -9999 -9999 -9999 -9999 -9999 -9999 -9999 -9999 -9999 -9999 -9999 -9999 -9999 -9999 -9999 -9999 -9999 -9999 -9999 -9999 -9999 -9999 -9999 -9999 -9999 -9999 -9999 -9999 -9999 -9999 -9999 -9999 -9999 -9999 -9999 -9999 -9999 -9999 -9999 -9999 -9999 -9999 -9999 -9999 -9999 -9999 -9999 -9999 -9999 -9999 -9999 -9999 
-9999 -9999 -9999 -9999 -9999 -9999 -9999 -9999 -9999 -9999 -9999 -9999 -9999 -9999 -9999 -9999 -9999 -9999 -9999 -9999 -9999 -9999 -9999 -9999 -9999 -9999 -9999 -9999 -9999 -9999 -9999 -9999 -9999 -9999 -9999 -9999 -9999 -9999 -9999 -9999 -9999 -9999 -9999 -9999 -9999 -9999 -9999 -9999 -9999 -9999 -9999 -9999 -9999 -9999 -9999 -9999 -9999 -9999 -9999 -9999 -9999 -9999 -9999 -9999 -9999 -9999 -9999 -9999 -9999 -9999 -9999 -9999 -9999 -9999 -9999 -9999 -9999 -9999 -9999 -9999 -9999 -9999 -9999 -9999 -9999 -9999 -9999 -9999 -9999 -9999 -9999 -9999 -9999 -9999 -9999 -9999 -9999 -9999 -9999 -9999 -9999 -9999 -9999 -9999 -9999 -9999 -9999 -9999 -9999 -9999 -9999 -9999 -9999 -9999 -9999 -9999 -9999 -9999 -9999 -9999 -9999 -9999 -9999 -9999 -9999 -9999 -9999 -9999 -9999 -9999 -9999 -9999 -9999 -9999 -9999 -9999 -9999 -9999 -9999 -9999 -9999 -9999 -9999 -9999 -9999 -9999 -9999 -9999 -9999 -9999 -9999 -9999 -9999 -9999 -9999 -9999 -9999 -9999 -9999 -9999 -9999 -9999 -9999 -9999 -9999 -9999 -9999 -9999 -9999 -9999 -9999 -9999 -9999 -9999 -9999 -9999 -9999 
-9999 -9999 -9999 -9999 -9999 -9999 -9999 -9999 -9999 -9999 -9999 -9999 -9999 -9999 -9999 -9999 -9999 -9999 -9999 -9999 -9999 -9999 -9999 -9999 -9999 -9999 -9999 -9999 -9999 -9999 -9999 -9999 -9999 -9999 -9999 -9999 -9999 -9999 -9999 -9999 -9999 -9999 -9999 -9999 -9999 -9999 -9999 -9999 -9999 -9999 -9999 -9999 -9999 -9999 -9999 -9999 -9999 -9999 -9999 -9999 -9999 -9999 -9999 -9999 -9999 -9999 -9999 -9999 -9999 -9999 -9999 -9999 -9999 -9999 -9999 -9999 -9999 -9999 -9999 -9999 -9999 -9999 -9999 -9999 -9999 -9999 -9999 -9999 -9999 -9999 -9999 -9999 -9999 -9999 -9999 -9999 -9999 -9999 -9999 -9999 -9999 -9999 -9999 -9999 -9999 -9999 -9999 -9999 -9999 -9999 -9999 -9999 -9999 -9999 -9999 -9999 -9999 -9999 -9999 -9999 -9999 -9999 -9999 -9999 -9999 -9999 -9999 -9999 -9999 -9999 -9999 -9999 -9999 -9999 -9999 -9999 -9999 -9999 -9999 -9999 -9999 -9999 -9999 -9999 -9999 -9999 -9999 -9999 -9999 -9999 -9999 -9999 -9999 -9999 -9999 -9999 -9999 -9999 -9999 -9999 -9999 -9999 -9999 -9999 -9999 -9999 -9999 -9999 -9999 -9999 -9999 -9999 -9999 -9999 -9999 -9999 -9999 
-9999 -9999 -9999 -9999 -9999 -9999 -9999 -9999 -9999 -9999 -9999 -9999 -9999 -9999 -9999 -9999 -9999 -9999 -9999 -9999 -9999 -9999 -9999 -9999 -9999 -9999 -9999 -9999 -9999 -9999 -9999 -9999 -9999 -9999 -9999 -9999 -9999 -9999 -9999 -9999 -9999 -9999 -9999 -9999 -9999 -9999 -9999 -9999 -9999 -9999 -9999 -9999 -9999 -9999 -9999 -9999 -9999 -9999 -9999 -9999 -9999 -9999 -9999 -9999 -9999 -9999 -9999 -9999 -9999 -9999 -9999 -9999 -9999 -9999 -9999 -9999 -9999 -9999 -9999 -9999 -9999 -9999 -9999 -9999 -9999 -9999 -9999 -9999 -9999 -9999 -9999 -9999 -9999 -9999 -9999 -9999 -9999 -9999 -9999 -9999 -9999 -9999 -9999 -9999 -9999 -9999 -9999 -9999 -9999 -9999 -9999 -9999 -9999 -9999 -9999 -9999 -9999 -9999 -9999 -9999 -9999 -9999 -9999 -9999 -9999 -9999 -9999 -9999 -9999 -9999 -9999 -9999 -9999 -9999 -9999 -9999 -9999 -9999 -9999 -9999 -9999 -9999 -9999 -9999 -9999 -9999 -9999 -9999 -9999 -9999 -9999 -9999 -9999 -9999 -9999 -9999 -9999 -9999 -9999 -9999 -9999 -9999 -9999 -9999 -9999 -9999 -9999 -9999 -9999 -9999 -9999 -9999 -9999 -9999 -9999 -9999 -9999 
